(--------------------------------------------------)
(文件名··················· board_profile.gcode)
(最后修订日期··················· 2019-10-09)
(最后修订时间··················· 15:37:57)
(软件名称··················· BoardCAM v0.0.1)
(程序员··················· Zheng)
(机床··················· TigerCNC)
(控制器··················· arduino grbl)
(单位··················· 毫米)
(加工编号··················· 01)
(操作··················· 铣削-钻孔)
(毛坯材料··················· 杨木)
(材料尺寸··················· 165cm*40cm*1cm)
(程序原点··················· X0 -- 左边)
(                           Y0 -- 底边)
(                           Z0 --上表面)
(状态··················· 未校验)
(铣刀····················· 6mm螺旋向上双刃铣刀)
(--------------------------------------------------)

G40
G49
G80
G54
G90
G21
G61
F1000.00000
S1000.00000
G0 Z5
G0 X150.0 Y0.0 Z5.0
G1 X150.000 Y0.000 Z-9
G1 X153.867 Y0.036 Z-9
G1 X157.669 Y0.143 Z-9
G1 X161.405 Y0.319 Z-9
G1 X165.078 Y0.564 Z-9
G1 X168.686 Y0.878 Z-9
G1 X172.231 Y1.257 Z-9
G1 X175.714 Y1.702 Z-9
G1 X179.134 Y2.212 Z-9
G1 X182.493 Y2.785 Z-9
G1 X185.790 Y3.420 Z-9
G1 X189.027 Y4.116 Z-9
G1 X192.204 Y4.873 Z-9
G1 X195.321 Y5.689 Z-9
G1 X198.379 Y6.562 Z-9
G1 X201.379 Y7.492 Z-9
G1 X204.321 Y8.479 Z-9
G1 X207.205 Y9.520 Z-9
G1 X210.033 Y10.614 Z-9
G1 X212.804 Y11.761 Z-9
G1 X215.520 Y12.960 Z-9
G1 X218.180 Y14.209 Z-9
G1 X220.786 Y15.507 Z-9
G1 X223.338 Y16.854 Z-9
G1 X225.836 Y18.248 Z-9
G1 X228.281 Y19.688 Z-9
G1 X230.674 Y21.172 Z-9
G1 X233.014 Y22.701 Z-9
G1 X235.304 Y24.273 Z-9
G1 X237.542 Y25.886 Z-9
G1 X239.730 Y27.540 Z-9
G1 X241.868 Y29.234 Z-9
G1 X243.957 Y30.966 Z-9
G1 X245.997 Y32.735 Z-9
G1 X247.989 Y34.541 Z-9
G1 X249.934 Y36.383 Z-9
G1 X251.831 Y38.258 Z-9
G1 X253.682 Y40.166 Z-9
G1 X255.486 Y42.107 Z-9
G1 X257.246 Y44.079 Z-9
G1 X258.960 Y46.080 Z-9
G1 X260.630 Y48.110 Z-9
G1 X262.256 Y50.168 Z-9
G1 X263.839 Y52.253 Z-9
G1 X265.379 Y54.363 Z-9
G1 X266.876 Y56.498 Z-9
G1 X268.332 Y58.656 Z-9
G1 X269.747 Y60.836 Z-9
G1 X271.121 Y63.037 Z-9
G1 X272.455 Y65.259 Z-9
G1 X273.750 Y67.500 Z-9
G1 X275.006 Y69.759 Z-9
G1 X276.223 Y72.035 Z-9
G1 X277.402 Y74.326 Z-9
G1 X278.544 Y76.632 Z-9
G1 X279.649 Y78.953 Z-9
G1 X280.717 Y81.285 Z-9
G1 X281.750 Y83.629 Z-9
G1 X282.748 Y85.984 Z-9
G1 X283.711 Y88.348 Z-9
G1 X284.640 Y90.720 Z-9
G1 X285.535 Y93.099 Z-9
G1 X286.398 Y95.485 Z-9
G1 X287.227 Y97.876 Z-9
G1 X288.025 Y100.270 Z-9
G1 X288.791 Y102.668 Z-9
G1 X289.527 Y105.067 Z-9
G1 X290.232 Y107.467 Z-9
G1 X290.907 Y109.866 Z-9
G1 X291.553 Y112.264 Z-9
G1 X292.170 Y114.660 Z-9
G1 X292.759 Y117.052 Z-9
G1 X293.320 Y119.439 Z-9
G1 X293.855 Y121.821 Z-9
G1 X294.362 Y124.196 Z-9
G1 X294.844 Y126.562 Z-9
G1 X295.300 Y128.920 Z-9
G1 X295.731 Y131.268 Z-9
G1 X296.138 Y133.605 Z-9
G1 X296.521 Y135.929 Z-9
G1 X296.880 Y138.240 Z-9
G1 X297.217 Y140.537 Z-9
G1 X297.531 Y142.818 Z-9
G1 X297.824 Y145.082 Z-9
G1 X298.095 Y147.329 Z-9
G1 X298.346 Y149.558 Z-9
G1 X298.577 Y151.766 Z-9
G1 X298.788 Y153.953 Z-9
G1 X298.980 Y156.119 Z-9
G1 X299.154 Y158.262 Z-9
G1 X299.310 Y160.380 Z-9
G1 X299.448 Y162.473 Z-9
G1 X299.570 Y164.540 Z-9
G1 X299.675 Y166.580 Z-9
G1 X299.765 Y168.591 Z-9
G1 X299.839 Y170.573 Z-9
G1 X299.898 Y172.524 Z-9
G1 X299.944 Y174.443 Z-9
G1 X299.975 Y176.329 Z-9
G1 X299.994 Y178.182 Z-9
G1 X300.000 Y180.000 Z-9
G1 X300.000 Y180.000 Z-9
G1 X299.279 Y190.000 Z-9
G1 X298.571 Y200.000 Z-9
G1 X297.876 Y210.000 Z-9
G1 X297.193 Y220.000 Z-9
G1 X296.523 Y230.000 Z-9
G1 X295.865 Y240.000 Z-9
G1 X295.220 Y250.000 Z-9
G1 X294.588 Y260.000 Z-9
G1 X293.968 Y270.000 Z-9
G1 X293.360 Y280.000 Z-9
G1 X292.765 Y290.000 Z-9
G1 X292.183 Y300.000 Z-9
G1 X291.614 Y310.000 Z-9
G1 X291.056 Y320.000 Z-9
G1 X290.512 Y330.000 Z-9
G1 X289.980 Y340.000 Z-9
G1 X289.460 Y350.000 Z-9
G1 X288.954 Y360.000 Z-9
G1 X288.459 Y370.000 Z-9
G1 X287.977 Y380.000 Z-9
G1 X287.508 Y390.000 Z-9
G1 X287.051 Y400.000 Z-9
G1 X286.607 Y410.000 Z-9
G1 X286.176 Y420.000 Z-9
G1 X285.756 Y430.000 Z-9
G1 X285.350 Y440.000 Z-9
G1 X284.956 Y450.000 Z-9
G1 X284.574 Y460.000 Z-9
G1 X284.205 Y470.000 Z-9
G1 X283.849 Y480.000 Z-9
G1 X283.505 Y490.000 Z-9
G1 X283.173 Y500.000 Z-9
G1 X282.855 Y510.000 Z-9
G1 X282.548 Y520.000 Z-9
G1 X282.254 Y530.000 Z-9
G1 X281.973 Y540.000 Z-9
G1 X281.704 Y550.000 Z-9
G1 X281.448 Y560.000 Z-9
G1 X281.204 Y570.000 Z-9
G1 X280.973 Y580.000 Z-9
G1 X280.754 Y590.000 Z-9
G1 X280.547 Y600.000 Z-9
G1 X280.354 Y610.000 Z-9
G1 X280.172 Y620.000 Z-9
G1 X280.004 Y630.000 Z-9
G1 X279.847 Y640.000 Z-9
G1 X279.704 Y650.000 Z-9
G1 X279.572 Y660.000 Z-9
G1 X279.454 Y670.000 Z-9
G1 X279.347 Y680.000 Z-9
G1 X279.254 Y690.000 Z-9
G1 X279.172 Y700.000 Z-9
G1 X279.104 Y710.000 Z-9
G1 X279.047 Y720.000 Z-9
G1 X279.004 Y730.000 Z-9
G1 X278.972 Y740.000 Z-9
G1 X278.954 Y750.000 Z-9
G1 X278.947 Y760.000 Z-9
G1 X278.954 Y770.000 Z-9
G1 X278.972 Y780.000 Z-9
G1 X279.004 Y790.000 Z-9
G1 X279.047 Y800.000 Z-9
G1 X279.104 Y810.000 Z-9
G1 X279.172 Y820.000 Z-9
G1 X279.254 Y830.000 Z-9
G1 X279.347 Y840.000 Z-9
G1 X279.454 Y850.000 Z-9
G1 X279.572 Y860.000 Z-9
G1 X279.704 Y870.000 Z-9
G1 X279.847 Y880.000 Z-9
G1 X280.004 Y890.000 Z-9
G1 X280.172 Y900.000 Z-9
G1 X280.354 Y910.000 Z-9
G1 X280.547 Y920.000 Z-9
G1 X280.754 Y930.000 Z-9
G1 X280.973 Y940.000 Z-9
G1 X281.204 Y950.000 Z-9
G1 X281.448 Y960.000 Z-9
G1 X281.704 Y970.000 Z-9
G1 X281.973 Y980.000 Z-9
G1 X282.254 Y990.000 Z-9
G1 X282.548 Y1000.000 Z-9
G1 X282.855 Y1010.000 Z-9
G1 X283.173 Y1020.000 Z-9
G1 X283.505 Y1030.000 Z-9
G1 X283.849 Y1040.000 Z-9
G1 X284.205 Y1050.000 Z-9
G1 X284.574 Y1060.000 Z-9
G1 X284.956 Y1070.000 Z-9
G1 X285.350 Y1080.000 Z-9
G1 X285.756 Y1090.000 Z-9
G1 X286.176 Y1100.000 Z-9
G1 X286.607 Y1110.000 Z-9
G1 X287.051 Y1120.000 Z-9
G1 X287.508 Y1130.000 Z-9
G1 X287.977 Y1140.000 Z-9
G1 X288.459 Y1150.000 Z-9
G1 X288.954 Y1160.000 Z-9
G1 X289.460 Y1170.000 Z-9
G1 X289.980 Y1180.000 Z-9
G1 X290.512 Y1190.000 Z-9
G1 X291.056 Y1200.000 Z-9
G1 X291.614 Y1210.000 Z-9
G1 X292.183 Y1220.000 Z-9
G1 X292.765 Y1230.000 Z-9
G1 X293.360 Y1240.000 Z-9
G1 X293.968 Y1250.000 Z-9
G1 X294.588 Y1260.000 Z-9
G1 X295.220 Y1270.000 Z-9
G1 X295.865 Y1280.000 Z-9
G1 X296.523 Y1290.000 Z-9
G1 X297.193 Y1300.000 Z-9
G1 X297.876 Y1310.000 Z-9
G1 X298.571 Y1320.000 Z-9
G1 X299.279 Y1330.000 Z-9
G1 X300.000 Y1340.000 Z-9
G1 X300.000 Y1340.000 Z-9
G1 X299.994 Y1341.818 Z-9
G1 X299.975 Y1343.671 Z-9
G1 X299.944 Y1345.557 Z-9
G1 X299.898 Y1347.476 Z-9
G1 X299.839 Y1349.428 Z-9
G1 X299.765 Y1351.409 Z-9
G1 X299.675 Y1353.420 Z-9
G1 X299.570 Y1355.460 Z-9
G1 X299.448 Y1357.527 Z-9
G1 X299.310 Y1359.620 Z-9
G1 X299.154 Y1361.738 Z-9
G1 X298.980 Y1363.881 Z-9
G1 X298.788 Y1366.047 Z-9
G1 X298.577 Y1368.234 Z-9
G1 X298.346 Y1370.443 Z-9
G1 X298.095 Y1372.671 Z-9
G1 X297.824 Y1374.918 Z-9
G1 X297.531 Y1377.182 Z-9
G1 X297.217 Y1379.463 Z-9
G1 X296.880 Y1381.760 Z-9
G1 X296.521 Y1384.071 Z-9
G1 X296.138 Y1386.395 Z-9
G1 X295.731 Y1388.732 Z-9
G1 X295.300 Y1391.080 Z-9
G1 X294.844 Y1393.438 Z-9
G1 X294.362 Y1395.804 Z-9
G1 X293.855 Y1398.179 Z-9
G1 X293.320 Y1400.561 Z-9
G1 X292.759 Y1402.948 Z-9
G1 X292.170 Y1405.340 Z-9
G1 X291.553 Y1407.736 Z-9
G1 X290.907 Y1410.134 Z-9
G1 X290.232 Y1412.533 Z-9
G1 X289.527 Y1414.933 Z-9
G1 X288.791 Y1417.332 Z-9
G1 X288.025 Y1419.730 Z-9
G1 X287.227 Y1422.124 Z-9
G1 X286.398 Y1424.515 Z-9
G1 X285.535 Y1426.901 Z-9
G1 X284.640 Y1429.280 Z-9
G1 X283.711 Y1431.652 Z-9
G1 X282.748 Y1434.016 Z-9
G1 X281.750 Y1436.371 Z-9
G1 X280.717 Y1438.715 Z-9
G1 X279.649 Y1441.048 Z-9
G1 X278.544 Y1443.368 Z-9
G1 X277.402 Y1445.674 Z-9
G1 X276.223 Y1447.965 Z-9
G1 X275.006 Y1450.241 Z-9
G1 X273.750 Y1452.500 Z-9
G1 X272.455 Y1454.741 Z-9
G1 X271.121 Y1456.963 Z-9
G1 X269.747 Y1459.164 Z-9
G1 X268.332 Y1461.344 Z-9
G1 X266.876 Y1463.503 Z-9
G1 X265.379 Y1465.637 Z-9
G1 X263.839 Y1467.747 Z-9
G1 X262.256 Y1469.832 Z-9
G1 X260.630 Y1471.890 Z-9
G1 X258.960 Y1473.920 Z-9
G1 X257.246 Y1475.921 Z-9
G1 X255.486 Y1477.893 Z-9
G1 X253.682 Y1479.834 Z-9
G1 X251.831 Y1481.742 Z-9
G1 X249.934 Y1483.618 Z-9
G1 X247.989 Y1485.459 Z-9
G1 X245.997 Y1487.265 Z-9
G1 X243.957 Y1489.034 Z-9
G1 X241.868 Y1490.766 Z-9
G1 X239.730 Y1492.460 Z-9
G1 X237.542 Y1494.114 Z-9
G1 X235.304 Y1495.727 Z-9
G1 X233.014 Y1497.299 Z-9
G1 X230.674 Y1498.828 Z-9
G1 X228.281 Y1500.312 Z-9
G1 X225.836 Y1501.752 Z-9
G1 X223.338 Y1503.146 Z-9
G1 X220.786 Y1504.493 Z-9
G1 X218.180 Y1505.791 Z-9
G1 X215.520 Y1507.040 Z-9
G1 X212.804 Y1508.239 Z-9
G1 X210.033 Y1509.386 Z-9
G1 X207.205 Y1510.480 Z-9
G1 X204.321 Y1511.521 Z-9
G1 X201.379 Y1512.507 Z-9
G1 X198.379 Y1513.438 Z-9
G1 X195.321 Y1514.311 Z-9
G1 X192.204 Y1515.127 Z-9
G1 X189.027 Y1515.884 Z-9
G1 X185.790 Y1516.580 Z-9
G1 X182.493 Y1517.215 Z-9
G1 X179.134 Y1517.788 Z-9
G1 X175.714 Y1518.298 Z-9
G1 X172.231 Y1518.743 Z-9
G1 X168.686 Y1519.122 Z-9
G1 X165.078 Y1519.436 Z-9
G1 X161.405 Y1519.681 Z-9
G1 X157.669 Y1519.857 Z-9
G1 X153.867 Y1519.964 Z-9
G1 X150.000 Y1520.000 Z-9
G1 X150.000 Y1520.000 Z-9
G1 X146.133 Y1519.964 Z-9
G1 X142.331 Y1519.857 Z-9
G1 X138.595 Y1519.681 Z-9
G1 X134.922 Y1519.436 Z-9
G1 X131.314 Y1519.122 Z-9
G1 X127.769 Y1518.743 Z-9
G1 X124.286 Y1518.298 Z-9
G1 X120.866 Y1517.788 Z-9
G1 X117.507 Y1517.215 Z-9
G1 X114.210 Y1516.580 Z-9
G1 X110.973 Y1515.884 Z-9
G1 X107.796 Y1515.127 Z-9
G1 X104.679 Y1514.311 Z-9
G1 X101.621 Y1513.438 Z-9
G1 X98.621 Y1512.507 Z-9
G1 X95.679 Y1511.521 Z-9
G1 X92.795 Y1510.480 Z-9
G1 X89.967 Y1509.386 Z-9
G1 X87.196 Y1508.239 Z-9
G1 X84.480 Y1507.040 Z-9
G1 X81.820 Y1505.791 Z-9
G1 X79.214 Y1504.493 Z-9
G1 X76.662 Y1503.146 Z-9
G1 X74.164 Y1501.752 Z-9
G1 X71.719 Y1500.312 Z-9
G1 X69.326 Y1498.828 Z-9
G1 X66.986 Y1497.299 Z-9
G1 X64.696 Y1495.727 Z-9
G1 X62.458 Y1494.114 Z-9
G1 X60.270 Y1492.460 Z-9
G1 X58.132 Y1490.766 Z-9
G1 X56.043 Y1489.034 Z-9
G1 X54.003 Y1487.265 Z-9
G1 X52.011 Y1485.459 Z-9
G1 X50.066 Y1483.618 Z-9
G1 X48.169 Y1481.742 Z-9
G1 X46.318 Y1479.834 Z-9
G1 X44.514 Y1477.893 Z-9
G1 X42.754 Y1475.921 Z-9
G1 X41.040 Y1473.920 Z-9
G1 X39.370 Y1471.890 Z-9
G1 X37.744 Y1469.832 Z-9
G1 X36.161 Y1467.747 Z-9
G1 X34.621 Y1465.637 Z-9
G1 X33.124 Y1463.503 Z-9
G1 X31.668 Y1461.344 Z-9
G1 X30.253 Y1459.164 Z-9
G1 X28.879 Y1456.963 Z-9
G1 X27.545 Y1454.741 Z-9
G1 X26.250 Y1452.500 Z-9
G1 X24.994 Y1450.241 Z-9
G1 X23.777 Y1447.965 Z-9
G1 X22.598 Y1445.674 Z-9
G1 X21.456 Y1443.368 Z-9
G1 X20.351 Y1441.048 Z-9
G1 X19.283 Y1438.715 Z-9
G1 X18.250 Y1436.371 Z-9
G1 X17.252 Y1434.016 Z-9
G1 X16.289 Y1431.652 Z-9
G1 X15.360 Y1429.280 Z-9
G1 X14.465 Y1426.901 Z-9
G1 X13.602 Y1424.515 Z-9
G1 X12.773 Y1422.124 Z-9
G1 X11.975 Y1419.730 Z-9
G1 X11.209 Y1417.332 Z-9
G1 X10.473 Y1414.933 Z-9
G1 X9.768 Y1412.533 Z-9
G1 X9.093 Y1410.134 Z-9
G1 X8.447 Y1407.736 Z-9
G1 X7.830 Y1405.340 Z-9
G1 X7.241 Y1402.948 Z-9
G1 X6.680 Y1400.561 Z-9
G1 X6.145 Y1398.179 Z-9
G1 X5.638 Y1395.804 Z-9
G1 X5.156 Y1393.438 Z-9
G1 X4.700 Y1391.080 Z-9
G1 X4.269 Y1388.732 Z-9
G1 X3.862 Y1386.395 Z-9
G1 X3.479 Y1384.071 Z-9
G1 X3.120 Y1381.760 Z-9
G1 X2.783 Y1379.463 Z-9
G1 X2.469 Y1377.182 Z-9
G1 X2.176 Y1374.918 Z-9
G1 X1.905 Y1372.671 Z-9
G1 X1.654 Y1370.443 Z-9
G1 X1.423 Y1368.234 Z-9
G1 X1.212 Y1366.047 Z-9
G1 X1.020 Y1363.881 Z-9
G1 X0.846 Y1361.738 Z-9
G1 X0.690 Y1359.620 Z-9
G1 X0.552 Y1357.527 Z-9
G1 X0.430 Y1355.460 Z-9
G1 X0.325 Y1353.420 Z-9
G1 X0.235 Y1351.409 Z-9
G1 X0.161 Y1349.428 Z-9
G1 X0.102 Y1347.476 Z-9
G1 X0.056 Y1345.557 Z-9
G1 X0.025 Y1343.671 Z-9
G1 X0.006 Y1341.818 Z-9
G1 X0.000 Y1340.000 Z-9
G1 X0.000 Y1340.000 Z-9
G1 X0.721 Y1330.000 Z-9
G1 X1.429 Y1320.000 Z-9
G1 X2.124 Y1310.000 Z-9
G1 X2.807 Y1300.000 Z-9
G1 X3.477 Y1290.000 Z-9
G1 X4.135 Y1280.000 Z-9
G1 X4.780 Y1270.000 Z-9
G1 X5.412 Y1260.000 Z-9
G1 X6.032 Y1250.000 Z-9
G1 X6.640 Y1240.000 Z-9
G1 X7.235 Y1230.000 Z-9
G1 X7.817 Y1220.000 Z-9
G1 X8.386 Y1210.000 Z-9
G1 X8.944 Y1200.000 Z-9
G1 X9.488 Y1190.000 Z-9
G1 X10.020 Y1180.000 Z-9
G1 X10.540 Y1170.000 Z-9
G1 X11.046 Y1160.000 Z-9
G1 X11.541 Y1150.000 Z-9
G1 X12.023 Y1140.000 Z-9
G1 X12.492 Y1130.000 Z-9
G1 X12.949 Y1120.000 Z-9
G1 X13.393 Y1110.000 Z-9
G1 X13.824 Y1100.000 Z-9
G1 X14.244 Y1090.000 Z-9
G1 X14.650 Y1080.000 Z-9
G1 X15.044 Y1070.000 Z-9
G1 X15.426 Y1060.000 Z-9
G1 X15.795 Y1050.000 Z-9
G1 X16.151 Y1040.000 Z-9
G1 X16.495 Y1030.000 Z-9
G1 X16.827 Y1020.000 Z-9
G1 X17.145 Y1010.000 Z-9
G1 X17.452 Y1000.000 Z-9
G1 X17.746 Y990.000 Z-9
G1 X18.027 Y980.000 Z-9
G1 X18.296 Y970.000 Z-9
G1 X18.552 Y960.000 Z-9
G1 X18.796 Y950.000 Z-9
G1 X19.027 Y940.000 Z-9
G1 X19.246 Y930.000 Z-9
G1 X19.453 Y920.000 Z-9
G1 X19.646 Y910.000 Z-9
G1 X19.828 Y900.000 Z-9
G1 X19.996 Y890.000 Z-9
G1 X20.153 Y880.000 Z-9
G1 X20.296 Y870.000 Z-9
G1 X20.428 Y860.000 Z-9
G1 X20.546 Y850.000 Z-9
G1 X20.653 Y840.000 Z-9
G1 X20.746 Y830.000 Z-9
G1 X20.828 Y820.000 Z-9
G1 X20.896 Y810.000 Z-9
G1 X20.953 Y800.000 Z-9
G1 X20.996 Y790.000 Z-9
G1 X21.028 Y780.000 Z-9
G1 X21.046 Y770.000 Z-9
G1 X21.053 Y760.000 Z-9
G1 X21.046 Y750.000 Z-9
G1 X21.028 Y740.000 Z-9
G1 X20.996 Y730.000 Z-9
G1 X20.953 Y720.000 Z-9
G1 X20.896 Y710.000 Z-9
G1 X20.828 Y700.000 Z-9
G1 X20.746 Y690.000 Z-9
G1 X20.653 Y680.000 Z-9
G1 X20.546 Y670.000 Z-9
G1 X20.428 Y660.000 Z-9
G1 X20.296 Y650.000 Z-9
G1 X20.153 Y640.000 Z-9
G1 X19.996 Y630.000 Z-9
G1 X19.828 Y620.000 Z-9
G1 X19.646 Y610.000 Z-9
G1 X19.453 Y600.000 Z-9
G1 X19.246 Y590.000 Z-9
G1 X19.027 Y580.000 Z-9
G1 X18.796 Y570.000 Z-9
G1 X18.552 Y560.000 Z-9
G1 X18.296 Y550.000 Z-9
G1 X18.027 Y540.000 Z-9
G1 X17.746 Y530.000 Z-9
G1 X17.452 Y520.000 Z-9
G1 X17.145 Y510.000 Z-9
G1 X16.827 Y500.000 Z-9
G1 X16.495 Y490.000 Z-9
G1 X16.151 Y480.000 Z-9
G1 X15.795 Y470.000 Z-9
G1 X15.426 Y460.000 Z-9
G1 X15.044 Y450.000 Z-9
G1 X14.650 Y440.000 Z-9
G1 X14.244 Y430.000 Z-9
G1 X13.824 Y420.000 Z-9
G1 X13.393 Y410.000 Z-9
G1 X12.949 Y400.000 Z-9
G1 X12.492 Y390.000 Z-9
G1 X12.023 Y380.000 Z-9
G1 X11.541 Y370.000 Z-9
G1 X11.046 Y360.000 Z-9
G1 X10.540 Y350.000 Z-9
G1 X10.020 Y340.000 Z-9
G1 X9.488 Y330.000 Z-9
G1 X8.944 Y320.000 Z-9
G1 X8.386 Y310.000 Z-9
G1 X7.817 Y300.000 Z-9
G1 X7.235 Y290.000 Z-9
G1 X6.640 Y280.000 Z-9
G1 X6.032 Y270.000 Z-9
G1 X5.412 Y260.000 Z-9
G1 X4.780 Y250.000 Z-9
G1 X4.135 Y240.000 Z-9
G1 X3.477 Y230.000 Z-9
G1 X2.807 Y220.000 Z-9
G1 X2.124 Y210.000 Z-9
G1 X1.429 Y200.000 Z-9
G1 X0.721 Y190.000 Z-9
G1 X0.000 Y180.000 Z-9
G1 X0.000 Y180.000 Z-9
G1 X0.006 Y178.182 Z-9
G1 X0.025 Y176.329 Z-9
G1 X0.056 Y174.443 Z-9
G1 X0.102 Y172.524 Z-9
G1 X0.161 Y170.573 Z-9
G1 X0.235 Y168.591 Z-9
G1 X0.325 Y166.580 Z-9
G1 X0.430 Y164.540 Z-9
G1 X0.552 Y162.473 Z-9
G1 X0.690 Y160.380 Z-9
G1 X0.846 Y158.262 Z-9
G1 X1.020 Y156.119 Z-9
G1 X1.212 Y153.953 Z-9
G1 X1.423 Y151.766 Z-9
G1 X1.654 Y149.558 Z-9
G1 X1.905 Y147.329 Z-9
G1 X2.176 Y145.082 Z-9
G1 X2.469 Y142.818 Z-9
G1 X2.783 Y140.537 Z-9
G1 X3.120 Y138.240 Z-9
G1 X3.479 Y135.929 Z-9
G1 X3.862 Y133.605 Z-9
G1 X4.269 Y131.268 Z-9
G1 X4.700 Y128.920 Z-9
G1 X5.156 Y126.562 Z-9
G1 X5.638 Y124.196 Z-9
G1 X6.145 Y121.821 Z-9
G1 X6.680 Y119.439 Z-9
G1 X7.241 Y117.052 Z-9
G1 X7.830 Y114.660 Z-9
G1 X8.447 Y112.264 Z-9
G1 X9.093 Y109.866 Z-9
G1 X9.768 Y107.467 Z-9
G1 X10.473 Y105.067 Z-9
G1 X11.209 Y102.668 Z-9
G1 X11.975 Y100.270 Z-9
G1 X12.773 Y97.876 Z-9
G1 X13.602 Y95.485 Z-9
G1 X14.465 Y93.099 Z-9
G1 X15.360 Y90.720 Z-9
G1 X16.289 Y88.348 Z-9
G1 X17.252 Y85.984 Z-9
G1 X18.250 Y83.629 Z-9
G1 X19.283 Y81.285 Z-9
G1 X20.351 Y78.953 Z-9
G1 X21.456 Y76.632 Z-9
G1 X22.598 Y74.326 Z-9
G1 X23.777 Y72.035 Z-9
G1 X24.994 Y69.759 Z-9
G1 X26.250 Y67.500 Z-9
G1 X27.545 Y65.259 Z-9
G1 X28.879 Y63.037 Z-9
G1 X30.253 Y60.836 Z-9
G1 X31.668 Y58.656 Z-9
G1 X33.124 Y56.498 Z-9
G1 X34.621 Y54.363 Z-9
G1 X36.161 Y52.253 Z-9
G1 X37.744 Y50.168 Z-9
G1 X39.370 Y48.110 Z-9
G1 X41.040 Y46.080 Z-9
G1 X42.754 Y44.079 Z-9
G1 X44.514 Y42.107 Z-9
G1 X46.318 Y40.166 Z-9
G1 X48.169 Y38.258 Z-9
G1 X50.066 Y36.383 Z-9
G1 X52.011 Y34.541 Z-9
G1 X54.003 Y32.735 Z-9
G1 X56.043 Y30.966 Z-9
G1 X58.132 Y29.234 Z-9
G1 X60.270 Y27.540 Z-9
G1 X62.458 Y25.886 Z-9
G1 X64.696 Y24.273 Z-9
G1 X66.986 Y22.701 Z-9
G1 X69.326 Y21.172 Z-9
G1 X71.719 Y19.688 Z-9
G1 X74.164 Y18.248 Z-9
G1 X76.662 Y16.854 Z-9
G1 X79.214 Y15.507 Z-9
G1 X81.820 Y14.209 Z-9
G1 X84.480 Y12.960 Z-9
G1 X87.196 Y11.761 Z-9
G1 X89.967 Y10.614 Z-9
G1 X92.795 Y9.520 Z-9
G1 X95.679 Y8.479 Z-9
G1 X98.621 Y7.492 Z-9
G1 X101.621 Y6.562 Z-9
G1 X104.679 Y5.689 Z-9
G1 X107.796 Y4.873 Z-9
G1 X110.973 Y4.116 Z-9
G1 X114.210 Y3.420 Z-9
G1 X117.507 Y2.785 Z-9
G1 X120.866 Y2.212 Z-9
G1 X124.286 Y1.702 Z-9
G1 X127.769 Y1.257 Z-9
G1 X131.314 Y0.878 Z-9
G1 X134.922 Y0.564 Z-9
G1 X138.595 Y0.319 Z-9
G1 X142.331 Y0.143 Z-9
G1 X146.133 Y0.036 Z-9
G1 X150.000 Y0.000 Z-9
G0 Z5
G0 X130.000 Y431.000 Z5
G1 X130.000 Y431.000 Z-1
G1 X130.209 Y430.996
G1 X130.419 Y430.985
G1 X130.627 Y430.967
G1 X130.835 Y430.942
G1 X131.042 Y430.909
G1 X131.247 Y430.869
G1 X131.452 Y430.822
G1 X131.654 Y430.768
G1 X131.854 Y430.706
G1 X132.052 Y430.638
G1 X132.248 Y430.563
G1 X132.440 Y430.481
G1 X132.630 Y430.393
G1 X132.817 Y430.298
G1 X133.000 Y430.196
G1 X133.180 Y430.088
G1 X133.355 Y429.974
G1 X133.527 Y429.854
G1 X133.694 Y429.728
G1 X133.857 Y429.596
G1 X134.015 Y429.459
G1 X134.168 Y429.316
G1 X134.316 Y429.168
G1 X134.459 Y429.015
G1 X134.596 Y428.857
G1 X134.728 Y428.694
G1 X134.854 Y428.527
G1 X134.974 Y428.355
G1 X135.088 Y428.180
G1 X135.196 Y428.000
G1 X135.298 Y427.817
G1 X135.393 Y427.630
G1 X135.481 Y427.440
G1 X135.563 Y427.248
G1 X135.638 Y427.052
G1 X135.706 Y426.854
G1 X135.768 Y426.654
G1 X135.822 Y426.452
G1 X135.869 Y426.247
G1 X135.909 Y426.042
G1 X135.942 Y425.835
G1 X135.967 Y425.627
G1 X135.985 Y425.419
G1 X135.996 Y425.209
G1 X136.000 Y425.000
G1 X135.996 Y424.791
G1 X135.985 Y424.581
G1 X135.967 Y424.373
G1 X135.942 Y424.165
G1 X135.909 Y423.958
G1 X135.869 Y423.753
G1 X135.822 Y423.548
G1 X135.768 Y423.346
G1 X135.706 Y423.146
G1 X135.638 Y422.948
G1 X135.563 Y422.752
G1 X135.481 Y422.560
G1 X135.393 Y422.370
G1 X135.298 Y422.183
G1 X135.196 Y422.000
G1 X135.088 Y421.820
G1 X134.974 Y421.645
G1 X134.854 Y421.473
G1 X134.728 Y421.306
G1 X134.596 Y421.143
G1 X134.459 Y420.985
G1 X134.316 Y420.832
G1 X134.168 Y420.684
G1 X134.015 Y420.541
G1 X133.857 Y420.404
G1 X133.694 Y420.272
G1 X133.527 Y420.146
G1 X133.355 Y420.026
G1 X133.180 Y419.912
G1 X133.000 Y419.804
G1 X132.817 Y419.702
G1 X132.630 Y419.607
G1 X132.440 Y419.519
G1 X132.248 Y419.437
G1 X132.052 Y419.362
G1 X131.854 Y419.294
G1 X131.654 Y419.232
G1 X131.452 Y419.178
G1 X131.247 Y419.131
G1 X131.042 Y419.091
G1 X130.835 Y419.058
G1 X130.627 Y419.033
G1 X130.419 Y419.015
G1 X130.209 Y419.004
G1 X130.000 Y419.000
G1 X129.791 Y419.004
G1 X129.581 Y419.015
G1 X129.373 Y419.033
G1 X129.165 Y419.058
G1 X128.958 Y419.091
G1 X128.753 Y419.131
G1 X128.548 Y419.178
G1 X128.346 Y419.232
G1 X128.146 Y419.294
G1 X127.948 Y419.362
G1 X127.752 Y419.437
G1 X127.560 Y419.519
G1 X127.370 Y419.607
G1 X127.183 Y419.702
G1 X127.000 Y419.804
G1 X126.820 Y419.912
G1 X126.645 Y420.026
G1 X126.473 Y420.146
G1 X126.306 Y420.272
G1 X126.143 Y420.404
G1 X125.985 Y420.541
G1 X125.832 Y420.684
G1 X125.684 Y420.832
G1 X125.541 Y420.985
G1 X125.404 Y421.143
G1 X125.272 Y421.306
G1 X125.146 Y421.473
G1 X125.026 Y421.645
G1 X124.912 Y421.820
G1 X124.804 Y422.000
G1 X124.702 Y422.183
G1 X124.607 Y422.370
G1 X124.519 Y422.560
G1 X124.437 Y422.752
G1 X124.362 Y422.948
G1 X124.294 Y423.146
G1 X124.232 Y423.346
G1 X124.178 Y423.548
G1 X124.131 Y423.753
G1 X124.091 Y423.958
G1 X124.058 Y424.165
G1 X124.033 Y424.373
G1 X124.015 Y424.581
G1 X124.004 Y424.791
G1 X124.000 Y425.000
G1 X124.004 Y425.209
G1 X124.015 Y425.419
G1 X124.033 Y425.627
G1 X124.058 Y425.835
G1 X124.091 Y426.042
G1 X124.131 Y426.247
G1 X124.178 Y426.452
G1 X124.232 Y426.654
G1 X124.294 Y426.854
G1 X124.362 Y427.052
G1 X124.437 Y427.248
G1 X124.519 Y427.440
G1 X124.607 Y427.630
G1 X124.702 Y427.817
G1 X124.804 Y428.000
G1 X124.912 Y428.180
G1 X125.026 Y428.355
G1 X125.146 Y428.527
G1 X125.272 Y428.694
G1 X125.404 Y428.857
G1 X125.541 Y429.015
G1 X125.684 Y429.168
G1 X125.832 Y429.316
G1 X125.985 Y429.459
G1 X126.143 Y429.596
G1 X126.306 Y429.728
G1 X126.473 Y429.854
G1 X126.645 Y429.974
G1 X126.820 Y430.088
G1 X127.000 Y430.196
G1 X127.183 Y430.298
G1 X127.370 Y430.393
G1 X127.560 Y430.481
G1 X127.752 Y430.563
G1 X127.948 Y430.638
G1 X128.146 Y430.706
G1 X128.346 Y430.768
G1 X128.548 Y430.822
G1 X128.753 Y430.869
G1 X128.958 Y430.909
G1 X129.165 Y430.942
G1 X129.373 Y430.967
G1 X129.581 Y430.985
G1 X129.791 Y430.996
G1 X130.000 Y431.000
G1 X130.000 Y428.000
G1 X130.105 Y427.998
G1 X130.209 Y427.993
G1 X130.314 Y427.984
G1 X130.418 Y427.971
G1 X130.521 Y427.954
G1 X130.624 Y427.934
G1 X130.726 Y427.911
G1 X130.827 Y427.884
G1 X130.927 Y427.853
G1 X131.026 Y427.819
G1 X131.124 Y427.782
G1 X131.220 Y427.741
G1 X131.315 Y427.696
G1 X131.408 Y427.649
G1 X131.500 Y427.598
G1 X131.590 Y427.544
G1 X131.678 Y427.487
G1 X131.763 Y427.427
G1 X131.847 Y427.364
G1 X131.928 Y427.298
G1 X132.007 Y427.229
G1 X132.084 Y427.158
G1 X132.158 Y427.084
G1 X132.229 Y427.007
G1 X132.298 Y426.928
G1 X132.364 Y426.847
G1 X132.427 Y426.763
G1 X132.487 Y426.678
G1 X132.544 Y426.590
G1 X132.598 Y426.500
G1 X132.649 Y426.408
G1 X132.696 Y426.315
G1 X132.741 Y426.220
G1 X132.782 Y426.124
G1 X132.819 Y426.026
G1 X132.853 Y425.927
G1 X132.884 Y425.827
G1 X132.911 Y425.726
G1 X132.934 Y425.624
G1 X132.954 Y425.521
G1 X132.971 Y425.418
G1 X132.984 Y425.314
G1 X132.993 Y425.209
G1 X132.998 Y425.105
G1 X133.000 Y425.000
G1 X132.998 Y424.895
G1 X132.993 Y424.791
G1 X132.984 Y424.686
G1 X132.971 Y424.582
G1 X132.954 Y424.479
G1 X132.934 Y424.376
G1 X132.911 Y424.274
G1 X132.884 Y424.173
G1 X132.853 Y424.073
G1 X132.819 Y423.974
G1 X132.782 Y423.876
G1 X132.741 Y423.780
G1 X132.696 Y423.685
G1 X132.649 Y423.592
G1 X132.598 Y423.500
G1 X132.544 Y423.410
G1 X132.487 Y423.322
G1 X132.427 Y423.237
G1 X132.364 Y423.153
G1 X132.298 Y423.072
G1 X132.229 Y422.993
G1 X132.158 Y422.916
G1 X132.084 Y422.842
G1 X132.007 Y422.771
G1 X131.928 Y422.702
G1 X131.847 Y422.636
G1 X131.763 Y422.573
G1 X131.678 Y422.513
G1 X131.590 Y422.456
G1 X131.500 Y422.402
G1 X131.408 Y422.351
G1 X131.315 Y422.304
G1 X131.220 Y422.259
G1 X131.124 Y422.218
G1 X131.026 Y422.181
G1 X130.927 Y422.147
G1 X130.827 Y422.116
G1 X130.726 Y422.089
G1 X130.624 Y422.066
G1 X130.521 Y422.046
G1 X130.418 Y422.029
G1 X130.314 Y422.016
G1 X130.209 Y422.007
G1 X130.105 Y422.002
G1 X130.000 Y422.000
G1 X129.895 Y422.002
G1 X129.791 Y422.007
G1 X129.686 Y422.016
G1 X129.582 Y422.029
G1 X129.479 Y422.046
G1 X129.376 Y422.066
G1 X129.274 Y422.089
G1 X129.173 Y422.116
G1 X129.073 Y422.147
G1 X128.974 Y422.181
G1 X128.876 Y422.218
G1 X128.780 Y422.259
G1 X128.685 Y422.304
G1 X128.592 Y422.351
G1 X128.500 Y422.402
G1 X128.410 Y422.456
G1 X128.322 Y422.513
G1 X128.237 Y422.573
G1 X128.153 Y422.636
G1 X128.072 Y422.702
G1 X127.993 Y422.771
G1 X127.916 Y422.842
G1 X127.842 Y422.916
G1 X127.771 Y422.993
G1 X127.702 Y423.072
G1 X127.636 Y423.153
G1 X127.573 Y423.237
G1 X127.513 Y423.322
G1 X127.456 Y423.410
G1 X127.402 Y423.500
G1 X127.351 Y423.592
G1 X127.304 Y423.685
G1 X127.259 Y423.780
G1 X127.218 Y423.876
G1 X127.181 Y423.974
G1 X127.147 Y424.073
G1 X127.116 Y424.173
G1 X127.089 Y424.274
G1 X127.066 Y424.376
G1 X127.046 Y424.479
G1 X127.029 Y424.582
G1 X127.016 Y424.686
G1 X127.007 Y424.791
G1 X127.002 Y424.895
G1 X127.000 Y425.000
G1 X127.002 Y425.105
G1 X127.007 Y425.209
G1 X127.016 Y425.314
G1 X127.029 Y425.418
G1 X127.046 Y425.521
G1 X127.066 Y425.624
G1 X127.089 Y425.726
G1 X127.116 Y425.827
G1 X127.147 Y425.927
G1 X127.181 Y426.026
G1 X127.218 Y426.124
G1 X127.259 Y426.220
G1 X127.304 Y426.315
G1 X127.351 Y426.408
G1 X127.402 Y426.500
G1 X127.456 Y426.590
G1 X127.513 Y426.678
G1 X127.573 Y426.763
G1 X127.636 Y426.847
G1 X127.702 Y426.928
G1 X127.771 Y427.007
G1 X127.842 Y427.084
G1 X127.916 Y427.158
G1 X127.993 Y427.229
G1 X128.072 Y427.298
G1 X128.153 Y427.364
G1 X128.237 Y427.427
G1 X128.322 Y427.487
G1 X128.410 Y427.544
G1 X128.500 Y427.598
G1 X128.592 Y427.649
G1 X128.685 Y427.696
G1 X128.780 Y427.741
G1 X128.876 Y427.782
G1 X128.974 Y427.819
G1 X129.073 Y427.853
G1 X129.173 Y427.884
G1 X129.274 Y427.911
G1 X129.376 Y427.934
G1 X129.479 Y427.954
G1 X129.582 Y427.971
G1 X129.686 Y427.984
G1 X129.791 Y427.993
G1 X129.895 Y427.998
G1 X130.000 Y428.000
G1 X130.000 Y428.000 Z5
G0 X130.000 Y471.000 Z5
G1 X130.000 Y471.000 Z-1
G1 X130.209 Y470.996
G1 X130.419 Y470.985
G1 X130.627 Y470.967
G1 X130.835 Y470.942
G1 X131.042 Y470.909
G1 X131.247 Y470.869
G1 X131.452 Y470.822
G1 X131.654 Y470.768
G1 X131.854 Y470.706
G1 X132.052 Y470.638
G1 X132.248 Y470.563
G1 X132.440 Y470.481
G1 X132.630 Y470.393
G1 X132.817 Y470.298
G1 X133.000 Y470.196
G1 X133.180 Y470.088
G1 X133.355 Y469.974
G1 X133.527 Y469.854
G1 X133.694 Y469.728
G1 X133.857 Y469.596
G1 X134.015 Y469.459
G1 X134.168 Y469.316
G1 X134.316 Y469.168
G1 X134.459 Y469.015
G1 X134.596 Y468.857
G1 X134.728 Y468.694
G1 X134.854 Y468.527
G1 X134.974 Y468.355
G1 X135.088 Y468.180
G1 X135.196 Y468.000
G1 X135.298 Y467.817
G1 X135.393 Y467.630
G1 X135.481 Y467.440
G1 X135.563 Y467.248
G1 X135.638 Y467.052
G1 X135.706 Y466.854
G1 X135.768 Y466.654
G1 X135.822 Y466.452
G1 X135.869 Y466.247
G1 X135.909 Y466.042
G1 X135.942 Y465.835
G1 X135.967 Y465.627
G1 X135.985 Y465.419
G1 X135.996 Y465.209
G1 X136.000 Y465.000
G1 X135.996 Y464.791
G1 X135.985 Y464.581
G1 X135.967 Y464.373
G1 X135.942 Y464.165
G1 X135.909 Y463.958
G1 X135.869 Y463.753
G1 X135.822 Y463.548
G1 X135.768 Y463.346
G1 X135.706 Y463.146
G1 X135.638 Y462.948
G1 X135.563 Y462.752
G1 X135.481 Y462.560
G1 X135.393 Y462.370
G1 X135.298 Y462.183
G1 X135.196 Y462.000
G1 X135.088 Y461.820
G1 X134.974 Y461.645
G1 X134.854 Y461.473
G1 X134.728 Y461.306
G1 X134.596 Y461.143
G1 X134.459 Y460.985
G1 X134.316 Y460.832
G1 X134.168 Y460.684
G1 X134.015 Y460.541
G1 X133.857 Y460.404
G1 X133.694 Y460.272
G1 X133.527 Y460.146
G1 X133.355 Y460.026
G1 X133.180 Y459.912
G1 X133.000 Y459.804
G1 X132.817 Y459.702
G1 X132.630 Y459.607
G1 X132.440 Y459.519
G1 X132.248 Y459.437
G1 X132.052 Y459.362
G1 X131.854 Y459.294
G1 X131.654 Y459.232
G1 X131.452 Y459.178
G1 X131.247 Y459.131
G1 X131.042 Y459.091
G1 X130.835 Y459.058
G1 X130.627 Y459.033
G1 X130.419 Y459.015
G1 X130.209 Y459.004
G1 X130.000 Y459.000
G1 X129.791 Y459.004
G1 X129.581 Y459.015
G1 X129.373 Y459.033
G1 X129.165 Y459.058
G1 X128.958 Y459.091
G1 X128.753 Y459.131
G1 X128.548 Y459.178
G1 X128.346 Y459.232
G1 X128.146 Y459.294
G1 X127.948 Y459.362
G1 X127.752 Y459.437
G1 X127.560 Y459.519
G1 X127.370 Y459.607
G1 X127.183 Y459.702
G1 X127.000 Y459.804
G1 X126.820 Y459.912
G1 X126.645 Y460.026
G1 X126.473 Y460.146
G1 X126.306 Y460.272
G1 X126.143 Y460.404
G1 X125.985 Y460.541
G1 X125.832 Y460.684
G1 X125.684 Y460.832
G1 X125.541 Y460.985
G1 X125.404 Y461.143
G1 X125.272 Y461.306
G1 X125.146 Y461.473
G1 X125.026 Y461.645
G1 X124.912 Y461.820
G1 X124.804 Y462.000
G1 X124.702 Y462.183
G1 X124.607 Y462.370
G1 X124.519 Y462.560
G1 X124.437 Y462.752
G1 X124.362 Y462.948
G1 X124.294 Y463.146
G1 X124.232 Y463.346
G1 X124.178 Y463.548
G1 X124.131 Y463.753
G1 X124.091 Y463.958
G1 X124.058 Y464.165
G1 X124.033 Y464.373
G1 X124.015 Y464.581
G1 X124.004 Y464.791
G1 X124.000 Y465.000
G1 X124.004 Y465.209
G1 X124.015 Y465.419
G1 X124.033 Y465.627
G1 X124.058 Y465.835
G1 X124.091 Y466.042
G1 X124.131 Y466.247
G1 X124.178 Y466.452
G1 X124.232 Y466.654
G1 X124.294 Y466.854
G1 X124.362 Y467.052
G1 X124.437 Y467.248
G1 X124.519 Y467.440
G1 X124.607 Y467.630
G1 X124.702 Y467.817
G1 X124.804 Y468.000
G1 X124.912 Y468.180
G1 X125.026 Y468.355
G1 X125.146 Y468.527
G1 X125.272 Y468.694
G1 X125.404 Y468.857
G1 X125.541 Y469.015
G1 X125.684 Y469.168
G1 X125.832 Y469.316
G1 X125.985 Y469.459
G1 X126.143 Y469.596
G1 X126.306 Y469.728
G1 X126.473 Y469.854
G1 X126.645 Y469.974
G1 X126.820 Y470.088
G1 X127.000 Y470.196
G1 X127.183 Y470.298
G1 X127.370 Y470.393
G1 X127.560 Y470.481
G1 X127.752 Y470.563
G1 X127.948 Y470.638
G1 X128.146 Y470.706
G1 X128.346 Y470.768
G1 X128.548 Y470.822
G1 X128.753 Y470.869
G1 X128.958 Y470.909
G1 X129.165 Y470.942
G1 X129.373 Y470.967
G1 X129.581 Y470.985
G1 X129.791 Y470.996
G1 X130.000 Y471.000
G1 X130.000 Y468.000
G1 X130.105 Y467.998
G1 X130.209 Y467.993
G1 X130.314 Y467.984
G1 X130.418 Y467.971
G1 X130.521 Y467.954
G1 X130.624 Y467.934
G1 X130.726 Y467.911
G1 X130.827 Y467.884
G1 X130.927 Y467.853
G1 X131.026 Y467.819
G1 X131.124 Y467.782
G1 X131.220 Y467.741
G1 X131.315 Y467.696
G1 X131.408 Y467.649
G1 X131.500 Y467.598
G1 X131.590 Y467.544
G1 X131.678 Y467.487
G1 X131.763 Y467.427
G1 X131.847 Y467.364
G1 X131.928 Y467.298
G1 X132.007 Y467.229
G1 X132.084 Y467.158
G1 X132.158 Y467.084
G1 X132.229 Y467.007
G1 X132.298 Y466.928
G1 X132.364 Y466.847
G1 X132.427 Y466.763
G1 X132.487 Y466.678
G1 X132.544 Y466.590
G1 X132.598 Y466.500
G1 X132.649 Y466.408
G1 X132.696 Y466.315
G1 X132.741 Y466.220
G1 X132.782 Y466.124
G1 X132.819 Y466.026
G1 X132.853 Y465.927
G1 X132.884 Y465.827
G1 X132.911 Y465.726
G1 X132.934 Y465.624
G1 X132.954 Y465.521
G1 X132.971 Y465.418
G1 X132.984 Y465.314
G1 X132.993 Y465.209
G1 X132.998 Y465.105
G1 X133.000 Y465.000
G1 X132.998 Y464.895
G1 X132.993 Y464.791
G1 X132.984 Y464.686
G1 X132.971 Y464.582
G1 X132.954 Y464.479
G1 X132.934 Y464.376
G1 X132.911 Y464.274
G1 X132.884 Y464.173
G1 X132.853 Y464.073
G1 X132.819 Y463.974
G1 X132.782 Y463.876
G1 X132.741 Y463.780
G1 X132.696 Y463.685
G1 X132.649 Y463.592
G1 X132.598 Y463.500
G1 X132.544 Y463.410
G1 X132.487 Y463.322
G1 X132.427 Y463.237
G1 X132.364 Y463.153
G1 X132.298 Y463.072
G1 X132.229 Y462.993
G1 X132.158 Y462.916
G1 X132.084 Y462.842
G1 X132.007 Y462.771
G1 X131.928 Y462.702
G1 X131.847 Y462.636
G1 X131.763 Y462.573
G1 X131.678 Y462.513
G1 X131.590 Y462.456
G1 X131.500 Y462.402
G1 X131.408 Y462.351
G1 X131.315 Y462.304
G1 X131.220 Y462.259
G1 X131.124 Y462.218
G1 X131.026 Y462.181
G1 X130.927 Y462.147
G1 X130.827 Y462.116
G1 X130.726 Y462.089
G1 X130.624 Y462.066
G1 X130.521 Y462.046
G1 X130.418 Y462.029
G1 X130.314 Y462.016
G1 X130.209 Y462.007
G1 X130.105 Y462.002
G1 X130.000 Y462.000
G1 X129.895 Y462.002
G1 X129.791 Y462.007
G1 X129.686 Y462.016
G1 X129.582 Y462.029
G1 X129.479 Y462.046
G1 X129.376 Y462.066
G1 X129.274 Y462.089
G1 X129.173 Y462.116
G1 X129.073 Y462.147
G1 X128.974 Y462.181
G1 X128.876 Y462.218
G1 X128.780 Y462.259
G1 X128.685 Y462.304
G1 X128.592 Y462.351
G1 X128.500 Y462.402
G1 X128.410 Y462.456
G1 X128.322 Y462.513
G1 X128.237 Y462.573
G1 X128.153 Y462.636
G1 X128.072 Y462.702
G1 X127.993 Y462.771
G1 X127.916 Y462.842
G1 X127.842 Y462.916
G1 X127.771 Y462.993
G1 X127.702 Y463.072
G1 X127.636 Y463.153
G1 X127.573 Y463.237
G1 X127.513 Y463.322
G1 X127.456 Y463.410
G1 X127.402 Y463.500
G1 X127.351 Y463.592
G1 X127.304 Y463.685
G1 X127.259 Y463.780
G1 X127.218 Y463.876
G1 X127.181 Y463.974
G1 X127.147 Y464.073
G1 X127.116 Y464.173
G1 X127.089 Y464.274
G1 X127.066 Y464.376
G1 X127.046 Y464.479
G1 X127.029 Y464.582
G1 X127.016 Y464.686
G1 X127.007 Y464.791
G1 X127.002 Y464.895
G1 X127.000 Y465.000
G1 X127.002 Y465.105
G1 X127.007 Y465.209
G1 X127.016 Y465.314
G1 X127.029 Y465.418
G1 X127.046 Y465.521
G1 X127.066 Y465.624
G1 X127.089 Y465.726
G1 X127.116 Y465.827
G1 X127.147 Y465.927
G1 X127.181 Y466.026
G1 X127.218 Y466.124
G1 X127.259 Y466.220
G1 X127.304 Y466.315
G1 X127.351 Y466.408
G1 X127.402 Y466.500
G1 X127.456 Y466.590
G1 X127.513 Y466.678
G1 X127.573 Y466.763
G1 X127.636 Y466.847
G1 X127.702 Y466.928
G1 X127.771 Y467.007
G1 X127.842 Y467.084
G1 X127.916 Y467.158
G1 X127.993 Y467.229
G1 X128.072 Y467.298
G1 X128.153 Y467.364
G1 X128.237 Y467.427
G1 X128.322 Y467.487
G1 X128.410 Y467.544
G1 X128.500 Y467.598
G1 X128.592 Y467.649
G1 X128.685 Y467.696
G1 X128.780 Y467.741
G1 X128.876 Y467.782
G1 X128.974 Y467.819
G1 X129.073 Y467.853
G1 X129.173 Y467.884
G1 X129.274 Y467.911
G1 X129.376 Y467.934
G1 X129.479 Y467.954
G1 X129.582 Y467.971
G1 X129.686 Y467.984
G1 X129.791 Y467.993
G1 X129.895 Y467.998
G1 X130.000 Y468.000
G1 X130.000 Y468.000 Z5
G0 X130.000 Y511.000 Z5
G1 X130.000 Y511.000 Z-1
G1 X130.209 Y510.996
G1 X130.419 Y510.985
G1 X130.627 Y510.967
G1 X130.835 Y510.942
G1 X131.042 Y510.909
G1 X131.247 Y510.869
G1 X131.452 Y510.822
G1 X131.654 Y510.768
G1 X131.854 Y510.706
G1 X132.052 Y510.638
G1 X132.248 Y510.563
G1 X132.440 Y510.481
G1 X132.630 Y510.393
G1 X132.817 Y510.298
G1 X133.000 Y510.196
G1 X133.180 Y510.088
G1 X133.355 Y509.974
G1 X133.527 Y509.854
G1 X133.694 Y509.728
G1 X133.857 Y509.596
G1 X134.015 Y509.459
G1 X134.168 Y509.316
G1 X134.316 Y509.168
G1 X134.459 Y509.015
G1 X134.596 Y508.857
G1 X134.728 Y508.694
G1 X134.854 Y508.527
G1 X134.974 Y508.355
G1 X135.088 Y508.180
G1 X135.196 Y508.000
G1 X135.298 Y507.817
G1 X135.393 Y507.630
G1 X135.481 Y507.440
G1 X135.563 Y507.248
G1 X135.638 Y507.052
G1 X135.706 Y506.854
G1 X135.768 Y506.654
G1 X135.822 Y506.452
G1 X135.869 Y506.247
G1 X135.909 Y506.042
G1 X135.942 Y505.835
G1 X135.967 Y505.627
G1 X135.985 Y505.419
G1 X135.996 Y505.209
G1 X136.000 Y505.000
G1 X135.996 Y504.791
G1 X135.985 Y504.581
G1 X135.967 Y504.373
G1 X135.942 Y504.165
G1 X135.909 Y503.958
G1 X135.869 Y503.753
G1 X135.822 Y503.548
G1 X135.768 Y503.346
G1 X135.706 Y503.146
G1 X135.638 Y502.948
G1 X135.563 Y502.752
G1 X135.481 Y502.560
G1 X135.393 Y502.370
G1 X135.298 Y502.183
G1 X135.196 Y502.000
G1 X135.088 Y501.820
G1 X134.974 Y501.645
G1 X134.854 Y501.473
G1 X134.728 Y501.306
G1 X134.596 Y501.143
G1 X134.459 Y500.985
G1 X134.316 Y500.832
G1 X134.168 Y500.684
G1 X134.015 Y500.541
G1 X133.857 Y500.404
G1 X133.694 Y500.272
G1 X133.527 Y500.146
G1 X133.355 Y500.026
G1 X133.180 Y499.912
G1 X133.000 Y499.804
G1 X132.817 Y499.702
G1 X132.630 Y499.607
G1 X132.440 Y499.519
G1 X132.248 Y499.437
G1 X132.052 Y499.362
G1 X131.854 Y499.294
G1 X131.654 Y499.232
G1 X131.452 Y499.178
G1 X131.247 Y499.131
G1 X131.042 Y499.091
G1 X130.835 Y499.058
G1 X130.627 Y499.033
G1 X130.419 Y499.015
G1 X130.209 Y499.004
G1 X130.000 Y499.000
G1 X129.791 Y499.004
G1 X129.581 Y499.015
G1 X129.373 Y499.033
G1 X129.165 Y499.058
G1 X128.958 Y499.091
G1 X128.753 Y499.131
G1 X128.548 Y499.178
G1 X128.346 Y499.232
G1 X128.146 Y499.294
G1 X127.948 Y499.362
G1 X127.752 Y499.437
G1 X127.560 Y499.519
G1 X127.370 Y499.607
G1 X127.183 Y499.702
G1 X127.000 Y499.804
G1 X126.820 Y499.912
G1 X126.645 Y500.026
G1 X126.473 Y500.146
G1 X126.306 Y500.272
G1 X126.143 Y500.404
G1 X125.985 Y500.541
G1 X125.832 Y500.684
G1 X125.684 Y500.832
G1 X125.541 Y500.985
G1 X125.404 Y501.143
G1 X125.272 Y501.306
G1 X125.146 Y501.473
G1 X125.026 Y501.645
G1 X124.912 Y501.820
G1 X124.804 Y502.000
G1 X124.702 Y502.183
G1 X124.607 Y502.370
G1 X124.519 Y502.560
G1 X124.437 Y502.752
G1 X124.362 Y502.948
G1 X124.294 Y503.146
G1 X124.232 Y503.346
G1 X124.178 Y503.548
G1 X124.131 Y503.753
G1 X124.091 Y503.958
G1 X124.058 Y504.165
G1 X124.033 Y504.373
G1 X124.015 Y504.581
G1 X124.004 Y504.791
G1 X124.000 Y505.000
G1 X124.004 Y505.209
G1 X124.015 Y505.419
G1 X124.033 Y505.627
G1 X124.058 Y505.835
G1 X124.091 Y506.042
G1 X124.131 Y506.247
G1 X124.178 Y506.452
G1 X124.232 Y506.654
G1 X124.294 Y506.854
G1 X124.362 Y507.052
G1 X124.437 Y507.248
G1 X124.519 Y507.440
G1 X124.607 Y507.630
G1 X124.702 Y507.817
G1 X124.804 Y508.000
G1 X124.912 Y508.180
G1 X125.026 Y508.355
G1 X125.146 Y508.527
G1 X125.272 Y508.694
G1 X125.404 Y508.857
G1 X125.541 Y509.015
G1 X125.684 Y509.168
G1 X125.832 Y509.316
G1 X125.985 Y509.459
G1 X126.143 Y509.596
G1 X126.306 Y509.728
G1 X126.473 Y509.854
G1 X126.645 Y509.974
G1 X126.820 Y510.088
G1 X127.000 Y510.196
G1 X127.183 Y510.298
G1 X127.370 Y510.393
G1 X127.560 Y510.481
G1 X127.752 Y510.563
G1 X127.948 Y510.638
G1 X128.146 Y510.706
G1 X128.346 Y510.768
G1 X128.548 Y510.822
G1 X128.753 Y510.869
G1 X128.958 Y510.909
G1 X129.165 Y510.942
G1 X129.373 Y510.967
G1 X129.581 Y510.985
G1 X129.791 Y510.996
G1 X130.000 Y511.000
G1 X130.000 Y508.000
G1 X130.105 Y507.998
G1 X130.209 Y507.993
G1 X130.314 Y507.984
G1 X130.418 Y507.971
G1 X130.521 Y507.954
G1 X130.624 Y507.934
G1 X130.726 Y507.911
G1 X130.827 Y507.884
G1 X130.927 Y507.853
G1 X131.026 Y507.819
G1 X131.124 Y507.782
G1 X131.220 Y507.741
G1 X131.315 Y507.696
G1 X131.408 Y507.649
G1 X131.500 Y507.598
G1 X131.590 Y507.544
G1 X131.678 Y507.487
G1 X131.763 Y507.427
G1 X131.847 Y507.364
G1 X131.928 Y507.298
G1 X132.007 Y507.229
G1 X132.084 Y507.158
G1 X132.158 Y507.084
G1 X132.229 Y507.007
G1 X132.298 Y506.928
G1 X132.364 Y506.847
G1 X132.427 Y506.763
G1 X132.487 Y506.678
G1 X132.544 Y506.590
G1 X132.598 Y506.500
G1 X132.649 Y506.408
G1 X132.696 Y506.315
G1 X132.741 Y506.220
G1 X132.782 Y506.124
G1 X132.819 Y506.026
G1 X132.853 Y505.927
G1 X132.884 Y505.827
G1 X132.911 Y505.726
G1 X132.934 Y505.624
G1 X132.954 Y505.521
G1 X132.971 Y505.418
G1 X132.984 Y505.314
G1 X132.993 Y505.209
G1 X132.998 Y505.105
G1 X133.000 Y505.000
G1 X132.998 Y504.895
G1 X132.993 Y504.791
G1 X132.984 Y504.686
G1 X132.971 Y504.582
G1 X132.954 Y504.479
G1 X132.934 Y504.376
G1 X132.911 Y504.274
G1 X132.884 Y504.173
G1 X132.853 Y504.073
G1 X132.819 Y503.974
G1 X132.782 Y503.876
G1 X132.741 Y503.780
G1 X132.696 Y503.685
G1 X132.649 Y503.592
G1 X132.598 Y503.500
G1 X132.544 Y503.410
G1 X132.487 Y503.322
G1 X132.427 Y503.237
G1 X132.364 Y503.153
G1 X132.298 Y503.072
G1 X132.229 Y502.993
G1 X132.158 Y502.916
G1 X132.084 Y502.842
G1 X132.007 Y502.771
G1 X131.928 Y502.702
G1 X131.847 Y502.636
G1 X131.763 Y502.573
G1 X131.678 Y502.513
G1 X131.590 Y502.456
G1 X131.500 Y502.402
G1 X131.408 Y502.351
G1 X131.315 Y502.304
G1 X131.220 Y502.259
G1 X131.124 Y502.218
G1 X131.026 Y502.181
G1 X130.927 Y502.147
G1 X130.827 Y502.116
G1 X130.726 Y502.089
G1 X130.624 Y502.066
G1 X130.521 Y502.046
G1 X130.418 Y502.029
G1 X130.314 Y502.016
G1 X130.209 Y502.007
G1 X130.105 Y502.002
G1 X130.000 Y502.000
G1 X129.895 Y502.002
G1 X129.791 Y502.007
G1 X129.686 Y502.016
G1 X129.582 Y502.029
G1 X129.479 Y502.046
G1 X129.376 Y502.066
G1 X129.274 Y502.089
G1 X129.173 Y502.116
G1 X129.073 Y502.147
G1 X128.974 Y502.181
G1 X128.876 Y502.218
G1 X128.780 Y502.259
G1 X128.685 Y502.304
G1 X128.592 Y502.351
G1 X128.500 Y502.402
G1 X128.410 Y502.456
G1 X128.322 Y502.513
G1 X128.237 Y502.573
G1 X128.153 Y502.636
G1 X128.072 Y502.702
G1 X127.993 Y502.771
G1 X127.916 Y502.842
G1 X127.842 Y502.916
G1 X127.771 Y502.993
G1 X127.702 Y503.072
G1 X127.636 Y503.153
G1 X127.573 Y503.237
G1 X127.513 Y503.322
G1 X127.456 Y503.410
G1 X127.402 Y503.500
G1 X127.351 Y503.592
G1 X127.304 Y503.685
G1 X127.259 Y503.780
G1 X127.218 Y503.876
G1 X127.181 Y503.974
G1 X127.147 Y504.073
G1 X127.116 Y504.173
G1 X127.089 Y504.274
G1 X127.066 Y504.376
G1 X127.046 Y504.479
G1 X127.029 Y504.582
G1 X127.016 Y504.686
G1 X127.007 Y504.791
G1 X127.002 Y504.895
G1 X127.000 Y505.000
G1 X127.002 Y505.105
G1 X127.007 Y505.209
G1 X127.016 Y505.314
G1 X127.029 Y505.418
G1 X127.046 Y505.521
G1 X127.066 Y505.624
G1 X127.089 Y505.726
G1 X127.116 Y505.827
G1 X127.147 Y505.927
G1 X127.181 Y506.026
G1 X127.218 Y506.124
G1 X127.259 Y506.220
G1 X127.304 Y506.315
G1 X127.351 Y506.408
G1 X127.402 Y506.500
G1 X127.456 Y506.590
G1 X127.513 Y506.678
G1 X127.573 Y506.763
G1 X127.636 Y506.847
G1 X127.702 Y506.928
G1 X127.771 Y507.007
G1 X127.842 Y507.084
G1 X127.916 Y507.158
G1 X127.993 Y507.229
G1 X128.072 Y507.298
G1 X128.153 Y507.364
G1 X128.237 Y507.427
G1 X128.322 Y507.487
G1 X128.410 Y507.544
G1 X128.500 Y507.598
G1 X128.592 Y507.649
G1 X128.685 Y507.696
G1 X128.780 Y507.741
G1 X128.876 Y507.782
G1 X128.974 Y507.819
G1 X129.073 Y507.853
G1 X129.173 Y507.884
G1 X129.274 Y507.911
G1 X129.376 Y507.934
G1 X129.479 Y507.954
G1 X129.582 Y507.971
G1 X129.686 Y507.984
G1 X129.791 Y507.993
G1 X129.895 Y507.998
G1 X130.000 Y508.000
G1 X130.000 Y508.000 Z5
G0 X130.000 Y551.000 Z5
G1 X130.000 Y551.000 Z-1
G1 X130.209 Y550.996
G1 X130.419 Y550.985
G1 X130.627 Y550.967
G1 X130.835 Y550.942
G1 X131.042 Y550.909
G1 X131.247 Y550.869
G1 X131.452 Y550.822
G1 X131.654 Y550.768
G1 X131.854 Y550.706
G1 X132.052 Y550.638
G1 X132.248 Y550.563
G1 X132.440 Y550.481
G1 X132.630 Y550.393
G1 X132.817 Y550.298
G1 X133.000 Y550.196
G1 X133.180 Y550.088
G1 X133.355 Y549.974
G1 X133.527 Y549.854
G1 X133.694 Y549.728
G1 X133.857 Y549.596
G1 X134.015 Y549.459
G1 X134.168 Y549.316
G1 X134.316 Y549.168
G1 X134.459 Y549.015
G1 X134.596 Y548.857
G1 X134.728 Y548.694
G1 X134.854 Y548.527
G1 X134.974 Y548.355
G1 X135.088 Y548.180
G1 X135.196 Y548.000
G1 X135.298 Y547.817
G1 X135.393 Y547.630
G1 X135.481 Y547.440
G1 X135.563 Y547.248
G1 X135.638 Y547.052
G1 X135.706 Y546.854
G1 X135.768 Y546.654
G1 X135.822 Y546.452
G1 X135.869 Y546.247
G1 X135.909 Y546.042
G1 X135.942 Y545.835
G1 X135.967 Y545.627
G1 X135.985 Y545.419
G1 X135.996 Y545.209
G1 X136.000 Y545.000
G1 X135.996 Y544.791
G1 X135.985 Y544.581
G1 X135.967 Y544.373
G1 X135.942 Y544.165
G1 X135.909 Y543.958
G1 X135.869 Y543.753
G1 X135.822 Y543.548
G1 X135.768 Y543.346
G1 X135.706 Y543.146
G1 X135.638 Y542.948
G1 X135.563 Y542.752
G1 X135.481 Y542.560
G1 X135.393 Y542.370
G1 X135.298 Y542.183
G1 X135.196 Y542.000
G1 X135.088 Y541.820
G1 X134.974 Y541.645
G1 X134.854 Y541.473
G1 X134.728 Y541.306
G1 X134.596 Y541.143
G1 X134.459 Y540.985
G1 X134.316 Y540.832
G1 X134.168 Y540.684
G1 X134.015 Y540.541
G1 X133.857 Y540.404
G1 X133.694 Y540.272
G1 X133.527 Y540.146
G1 X133.355 Y540.026
G1 X133.180 Y539.912
G1 X133.000 Y539.804
G1 X132.817 Y539.702
G1 X132.630 Y539.607
G1 X132.440 Y539.519
G1 X132.248 Y539.437
G1 X132.052 Y539.362
G1 X131.854 Y539.294
G1 X131.654 Y539.232
G1 X131.452 Y539.178
G1 X131.247 Y539.131
G1 X131.042 Y539.091
G1 X130.835 Y539.058
G1 X130.627 Y539.033
G1 X130.419 Y539.015
G1 X130.209 Y539.004
G1 X130.000 Y539.000
G1 X129.791 Y539.004
G1 X129.581 Y539.015
G1 X129.373 Y539.033
G1 X129.165 Y539.058
G1 X128.958 Y539.091
G1 X128.753 Y539.131
G1 X128.548 Y539.178
G1 X128.346 Y539.232
G1 X128.146 Y539.294
G1 X127.948 Y539.362
G1 X127.752 Y539.437
G1 X127.560 Y539.519
G1 X127.370 Y539.607
G1 X127.183 Y539.702
G1 X127.000 Y539.804
G1 X126.820 Y539.912
G1 X126.645 Y540.026
G1 X126.473 Y540.146
G1 X126.306 Y540.272
G1 X126.143 Y540.404
G1 X125.985 Y540.541
G1 X125.832 Y540.684
G1 X125.684 Y540.832
G1 X125.541 Y540.985
G1 X125.404 Y541.143
G1 X125.272 Y541.306
G1 X125.146 Y541.473
G1 X125.026 Y541.645
G1 X124.912 Y541.820
G1 X124.804 Y542.000
G1 X124.702 Y542.183
G1 X124.607 Y542.370
G1 X124.519 Y542.560
G1 X124.437 Y542.752
G1 X124.362 Y542.948
G1 X124.294 Y543.146
G1 X124.232 Y543.346
G1 X124.178 Y543.548
G1 X124.131 Y543.753
G1 X124.091 Y543.958
G1 X124.058 Y544.165
G1 X124.033 Y544.373
G1 X124.015 Y544.581
G1 X124.004 Y544.791
G1 X124.000 Y545.000
G1 X124.004 Y545.209
G1 X124.015 Y545.419
G1 X124.033 Y545.627
G1 X124.058 Y545.835
G1 X124.091 Y546.042
G1 X124.131 Y546.247
G1 X124.178 Y546.452
G1 X124.232 Y546.654
G1 X124.294 Y546.854
G1 X124.362 Y547.052
G1 X124.437 Y547.248
G1 X124.519 Y547.440
G1 X124.607 Y547.630
G1 X124.702 Y547.817
G1 X124.804 Y548.000
G1 X124.912 Y548.180
G1 X125.026 Y548.355
G1 X125.146 Y548.527
G1 X125.272 Y548.694
G1 X125.404 Y548.857
G1 X125.541 Y549.015
G1 X125.684 Y549.168
G1 X125.832 Y549.316
G1 X125.985 Y549.459
G1 X126.143 Y549.596
G1 X126.306 Y549.728
G1 X126.473 Y549.854
G1 X126.645 Y549.974
G1 X126.820 Y550.088
G1 X127.000 Y550.196
G1 X127.183 Y550.298
G1 X127.370 Y550.393
G1 X127.560 Y550.481
G1 X127.752 Y550.563
G1 X127.948 Y550.638
G1 X128.146 Y550.706
G1 X128.346 Y550.768
G1 X128.548 Y550.822
G1 X128.753 Y550.869
G1 X128.958 Y550.909
G1 X129.165 Y550.942
G1 X129.373 Y550.967
G1 X129.581 Y550.985
G1 X129.791 Y550.996
G1 X130.000 Y551.000
G1 X130.000 Y548.000
G1 X130.105 Y547.998
G1 X130.209 Y547.993
G1 X130.314 Y547.984
G1 X130.418 Y547.971
G1 X130.521 Y547.954
G1 X130.624 Y547.934
G1 X130.726 Y547.911
G1 X130.827 Y547.884
G1 X130.927 Y547.853
G1 X131.026 Y547.819
G1 X131.124 Y547.782
G1 X131.220 Y547.741
G1 X131.315 Y547.696
G1 X131.408 Y547.649
G1 X131.500 Y547.598
G1 X131.590 Y547.544
G1 X131.678 Y547.487
G1 X131.763 Y547.427
G1 X131.847 Y547.364
G1 X131.928 Y547.298
G1 X132.007 Y547.229
G1 X132.084 Y547.158
G1 X132.158 Y547.084
G1 X132.229 Y547.007
G1 X132.298 Y546.928
G1 X132.364 Y546.847
G1 X132.427 Y546.763
G1 X132.487 Y546.678
G1 X132.544 Y546.590
G1 X132.598 Y546.500
G1 X132.649 Y546.408
G1 X132.696 Y546.315
G1 X132.741 Y546.220
G1 X132.782 Y546.124
G1 X132.819 Y546.026
G1 X132.853 Y545.927
G1 X132.884 Y545.827
G1 X132.911 Y545.726
G1 X132.934 Y545.624
G1 X132.954 Y545.521
G1 X132.971 Y545.418
G1 X132.984 Y545.314
G1 X132.993 Y545.209
G1 X132.998 Y545.105
G1 X133.000 Y545.000
G1 X132.998 Y544.895
G1 X132.993 Y544.791
G1 X132.984 Y544.686
G1 X132.971 Y544.582
G1 X132.954 Y544.479
G1 X132.934 Y544.376
G1 X132.911 Y544.274
G1 X132.884 Y544.173
G1 X132.853 Y544.073
G1 X132.819 Y543.974
G1 X132.782 Y543.876
G1 X132.741 Y543.780
G1 X132.696 Y543.685
G1 X132.649 Y543.592
G1 X132.598 Y543.500
G1 X132.544 Y543.410
G1 X132.487 Y543.322
G1 X132.427 Y543.237
G1 X132.364 Y543.153
G1 X132.298 Y543.072
G1 X132.229 Y542.993
G1 X132.158 Y542.916
G1 X132.084 Y542.842
G1 X132.007 Y542.771
G1 X131.928 Y542.702
G1 X131.847 Y542.636
G1 X131.763 Y542.573
G1 X131.678 Y542.513
G1 X131.590 Y542.456
G1 X131.500 Y542.402
G1 X131.408 Y542.351
G1 X131.315 Y542.304
G1 X131.220 Y542.259
G1 X131.124 Y542.218
G1 X131.026 Y542.181
G1 X130.927 Y542.147
G1 X130.827 Y542.116
G1 X130.726 Y542.089
G1 X130.624 Y542.066
G1 X130.521 Y542.046
G1 X130.418 Y542.029
G1 X130.314 Y542.016
G1 X130.209 Y542.007
G1 X130.105 Y542.002
G1 X130.000 Y542.000
G1 X129.895 Y542.002
G1 X129.791 Y542.007
G1 X129.686 Y542.016
G1 X129.582 Y542.029
G1 X129.479 Y542.046
G1 X129.376 Y542.066
G1 X129.274 Y542.089
G1 X129.173 Y542.116
G1 X129.073 Y542.147
G1 X128.974 Y542.181
G1 X128.876 Y542.218
G1 X128.780 Y542.259
G1 X128.685 Y542.304
G1 X128.592 Y542.351
G1 X128.500 Y542.402
G1 X128.410 Y542.456
G1 X128.322 Y542.513
G1 X128.237 Y542.573
G1 X128.153 Y542.636
G1 X128.072 Y542.702
G1 X127.993 Y542.771
G1 X127.916 Y542.842
G1 X127.842 Y542.916
G1 X127.771 Y542.993
G1 X127.702 Y543.072
G1 X127.636 Y543.153
G1 X127.573 Y543.237
G1 X127.513 Y543.322
G1 X127.456 Y543.410
G1 X127.402 Y543.500
G1 X127.351 Y543.592
G1 X127.304 Y543.685
G1 X127.259 Y543.780
G1 X127.218 Y543.876
G1 X127.181 Y543.974
G1 X127.147 Y544.073
G1 X127.116 Y544.173
G1 X127.089 Y544.274
G1 X127.066 Y544.376
G1 X127.046 Y544.479
G1 X127.029 Y544.582
G1 X127.016 Y544.686
G1 X127.007 Y544.791
G1 X127.002 Y544.895
G1 X127.000 Y545.000
G1 X127.002 Y545.105
G1 X127.007 Y545.209
G1 X127.016 Y545.314
G1 X127.029 Y545.418
G1 X127.046 Y545.521
G1 X127.066 Y545.624
G1 X127.089 Y545.726
G1 X127.116 Y545.827
G1 X127.147 Y545.927
G1 X127.181 Y546.026
G1 X127.218 Y546.124
G1 X127.259 Y546.220
G1 X127.304 Y546.315
G1 X127.351 Y546.408
G1 X127.402 Y546.500
G1 X127.456 Y546.590
G1 X127.513 Y546.678
G1 X127.573 Y546.763
G1 X127.636 Y546.847
G1 X127.702 Y546.928
G1 X127.771 Y547.007
G1 X127.842 Y547.084
G1 X127.916 Y547.158
G1 X127.993 Y547.229
G1 X128.072 Y547.298
G1 X128.153 Y547.364
G1 X128.237 Y547.427
G1 X128.322 Y547.487
G1 X128.410 Y547.544
G1 X128.500 Y547.598
G1 X128.592 Y547.649
G1 X128.685 Y547.696
G1 X128.780 Y547.741
G1 X128.876 Y547.782
G1 X128.974 Y547.819
G1 X129.073 Y547.853
G1 X129.173 Y547.884
G1 X129.274 Y547.911
G1 X129.376 Y547.934
G1 X129.479 Y547.954
G1 X129.582 Y547.971
G1 X129.686 Y547.984
G1 X129.791 Y547.993
G1 X129.895 Y547.998
G1 X130.000 Y548.000
G1 X130.000 Y548.000 Z5
G0 X170.000 Y471.000 Z5
G1 X170.000 Y471.000 Z-1
G1 X170.209 Y470.996
G1 X170.419 Y470.985
G1 X170.627 Y470.967
G1 X170.835 Y470.942
G1 X171.042 Y470.909
G1 X171.247 Y470.869
G1 X171.452 Y470.822
G1 X171.654 Y470.768
G1 X171.854 Y470.706
G1 X172.052 Y470.638
G1 X172.248 Y470.563
G1 X172.440 Y470.481
G1 X172.630 Y470.393
G1 X172.817 Y470.298
G1 X173.000 Y470.196
G1 X173.180 Y470.088
G1 X173.355 Y469.974
G1 X173.527 Y469.854
G1 X173.694 Y469.728
G1 X173.857 Y469.596
G1 X174.015 Y469.459
G1 X174.168 Y469.316
G1 X174.316 Y469.168
G1 X174.459 Y469.015
G1 X174.596 Y468.857
G1 X174.728 Y468.694
G1 X174.854 Y468.527
G1 X174.974 Y468.355
G1 X175.088 Y468.180
G1 X175.196 Y468.000
G1 X175.298 Y467.817
G1 X175.393 Y467.630
G1 X175.481 Y467.440
G1 X175.563 Y467.248
G1 X175.638 Y467.052
G1 X175.706 Y466.854
G1 X175.768 Y466.654
G1 X175.822 Y466.452
G1 X175.869 Y466.247
G1 X175.909 Y466.042
G1 X175.942 Y465.835
G1 X175.967 Y465.627
G1 X175.985 Y465.419
G1 X175.996 Y465.209
G1 X176.000 Y465.000
G1 X175.996 Y464.791
G1 X175.985 Y464.581
G1 X175.967 Y464.373
G1 X175.942 Y464.165
G1 X175.909 Y463.958
G1 X175.869 Y463.753
G1 X175.822 Y463.548
G1 X175.768 Y463.346
G1 X175.706 Y463.146
G1 X175.638 Y462.948
G1 X175.563 Y462.752
G1 X175.481 Y462.560
G1 X175.393 Y462.370
G1 X175.298 Y462.183
G1 X175.196 Y462.000
G1 X175.088 Y461.820
G1 X174.974 Y461.645
G1 X174.854 Y461.473
G1 X174.728 Y461.306
G1 X174.596 Y461.143
G1 X174.459 Y460.985
G1 X174.316 Y460.832
G1 X174.168 Y460.684
G1 X174.015 Y460.541
G1 X173.857 Y460.404
G1 X173.694 Y460.272
G1 X173.527 Y460.146
G1 X173.355 Y460.026
G1 X173.180 Y459.912
G1 X173.000 Y459.804
G1 X172.817 Y459.702
G1 X172.630 Y459.607
G1 X172.440 Y459.519
G1 X172.248 Y459.437
G1 X172.052 Y459.362
G1 X171.854 Y459.294
G1 X171.654 Y459.232
G1 X171.452 Y459.178
G1 X171.247 Y459.131
G1 X171.042 Y459.091
G1 X170.835 Y459.058
G1 X170.627 Y459.033
G1 X170.419 Y459.015
G1 X170.209 Y459.004
G1 X170.000 Y459.000
G1 X169.791 Y459.004
G1 X169.581 Y459.015
G1 X169.373 Y459.033
G1 X169.165 Y459.058
G1 X168.958 Y459.091
G1 X168.753 Y459.131
G1 X168.548 Y459.178
G1 X168.346 Y459.232
G1 X168.146 Y459.294
G1 X167.948 Y459.362
G1 X167.752 Y459.437
G1 X167.560 Y459.519
G1 X167.370 Y459.607
G1 X167.183 Y459.702
G1 X167.000 Y459.804
G1 X166.820 Y459.912
G1 X166.645 Y460.026
G1 X166.473 Y460.146
G1 X166.306 Y460.272
G1 X166.143 Y460.404
G1 X165.985 Y460.541
G1 X165.832 Y460.684
G1 X165.684 Y460.832
G1 X165.541 Y460.985
G1 X165.404 Y461.143
G1 X165.272 Y461.306
G1 X165.146 Y461.473
G1 X165.026 Y461.645
G1 X164.912 Y461.820
G1 X164.804 Y462.000
G1 X164.702 Y462.183
G1 X164.607 Y462.370
G1 X164.519 Y462.560
G1 X164.437 Y462.752
G1 X164.362 Y462.948
G1 X164.294 Y463.146
G1 X164.232 Y463.346
G1 X164.178 Y463.548
G1 X164.131 Y463.753
G1 X164.091 Y463.958
G1 X164.058 Y464.165
G1 X164.033 Y464.373
G1 X164.015 Y464.581
G1 X164.004 Y464.791
G1 X164.000 Y465.000
G1 X164.004 Y465.209
G1 X164.015 Y465.419
G1 X164.033 Y465.627
G1 X164.058 Y465.835
G1 X164.091 Y466.042
G1 X164.131 Y466.247
G1 X164.178 Y466.452
G1 X164.232 Y466.654
G1 X164.294 Y466.854
G1 X164.362 Y467.052
G1 X164.437 Y467.248
G1 X164.519 Y467.440
G1 X164.607 Y467.630
G1 X164.702 Y467.817
G1 X164.804 Y468.000
G1 X164.912 Y468.180
G1 X165.026 Y468.355
G1 X165.146 Y468.527
G1 X165.272 Y468.694
G1 X165.404 Y468.857
G1 X165.541 Y469.015
G1 X165.684 Y469.168
G1 X165.832 Y469.316
G1 X165.985 Y469.459
G1 X166.143 Y469.596
G1 X166.306 Y469.728
G1 X166.473 Y469.854
G1 X166.645 Y469.974
G1 X166.820 Y470.088
G1 X167.000 Y470.196
G1 X167.183 Y470.298
G1 X167.370 Y470.393
G1 X167.560 Y470.481
G1 X167.752 Y470.563
G1 X167.948 Y470.638
G1 X168.146 Y470.706
G1 X168.346 Y470.768
G1 X168.548 Y470.822
G1 X168.753 Y470.869
G1 X168.958 Y470.909
G1 X169.165 Y470.942
G1 X169.373 Y470.967
G1 X169.581 Y470.985
G1 X169.791 Y470.996
G1 X170.000 Y471.000
G1 X170.000 Y468.000
G1 X170.105 Y467.998
G1 X170.209 Y467.993
G1 X170.314 Y467.984
G1 X170.418 Y467.971
G1 X170.521 Y467.954
G1 X170.624 Y467.934
G1 X170.726 Y467.911
G1 X170.827 Y467.884
G1 X170.927 Y467.853
G1 X171.026 Y467.819
G1 X171.124 Y467.782
G1 X171.220 Y467.741
G1 X171.315 Y467.696
G1 X171.408 Y467.649
G1 X171.500 Y467.598
G1 X171.590 Y467.544
G1 X171.678 Y467.487
G1 X171.763 Y467.427
G1 X171.847 Y467.364
G1 X171.928 Y467.298
G1 X172.007 Y467.229
G1 X172.084 Y467.158
G1 X172.158 Y467.084
G1 X172.229 Y467.007
G1 X172.298 Y466.928
G1 X172.364 Y466.847
G1 X172.427 Y466.763
G1 X172.487 Y466.678
G1 X172.544 Y466.590
G1 X172.598 Y466.500
G1 X172.649 Y466.408
G1 X172.696 Y466.315
G1 X172.741 Y466.220
G1 X172.782 Y466.124
G1 X172.819 Y466.026
G1 X172.853 Y465.927
G1 X172.884 Y465.827
G1 X172.911 Y465.726
G1 X172.934 Y465.624
G1 X172.954 Y465.521
G1 X172.971 Y465.418
G1 X172.984 Y465.314
G1 X172.993 Y465.209
G1 X172.998 Y465.105
G1 X173.000 Y465.000
G1 X172.998 Y464.895
G1 X172.993 Y464.791
G1 X172.984 Y464.686
G1 X172.971 Y464.582
G1 X172.954 Y464.479
G1 X172.934 Y464.376
G1 X172.911 Y464.274
G1 X172.884 Y464.173
G1 X172.853 Y464.073
G1 X172.819 Y463.974
G1 X172.782 Y463.876
G1 X172.741 Y463.780
G1 X172.696 Y463.685
G1 X172.649 Y463.592
G1 X172.598 Y463.500
G1 X172.544 Y463.410
G1 X172.487 Y463.322
G1 X172.427 Y463.237
G1 X172.364 Y463.153
G1 X172.298 Y463.072
G1 X172.229 Y462.993
G1 X172.158 Y462.916
G1 X172.084 Y462.842
G1 X172.007 Y462.771
G1 X171.928 Y462.702
G1 X171.847 Y462.636
G1 X171.763 Y462.573
G1 X171.678 Y462.513
G1 X171.590 Y462.456
G1 X171.500 Y462.402
G1 X171.408 Y462.351
G1 X171.315 Y462.304
G1 X171.220 Y462.259
G1 X171.124 Y462.218
G1 X171.026 Y462.181
G1 X170.927 Y462.147
G1 X170.827 Y462.116
G1 X170.726 Y462.089
G1 X170.624 Y462.066
G1 X170.521 Y462.046
G1 X170.418 Y462.029
G1 X170.314 Y462.016
G1 X170.209 Y462.007
G1 X170.105 Y462.002
G1 X170.000 Y462.000
G1 X169.895 Y462.002
G1 X169.791 Y462.007
G1 X169.686 Y462.016
G1 X169.582 Y462.029
G1 X169.479 Y462.046
G1 X169.376 Y462.066
G1 X169.274 Y462.089
G1 X169.173 Y462.116
G1 X169.073 Y462.147
G1 X168.974 Y462.181
G1 X168.876 Y462.218
G1 X168.780 Y462.259
G1 X168.685 Y462.304
G1 X168.592 Y462.351
G1 X168.500 Y462.402
G1 X168.410 Y462.456
G1 X168.322 Y462.513
G1 X168.237 Y462.573
G1 X168.153 Y462.636
G1 X168.072 Y462.702
G1 X167.993 Y462.771
G1 X167.916 Y462.842
G1 X167.842 Y462.916
G1 X167.771 Y462.993
G1 X167.702 Y463.072
G1 X167.636 Y463.153
G1 X167.573 Y463.237
G1 X167.513 Y463.322
G1 X167.456 Y463.410
G1 X167.402 Y463.500
G1 X167.351 Y463.592
G1 X167.304 Y463.685
G1 X167.259 Y463.780
G1 X167.218 Y463.876
G1 X167.181 Y463.974
G1 X167.147 Y464.073
G1 X167.116 Y464.173
G1 X167.089 Y464.274
G1 X167.066 Y464.376
G1 X167.046 Y464.479
G1 X167.029 Y464.582
G1 X167.016 Y464.686
G1 X167.007 Y464.791
G1 X167.002 Y464.895
G1 X167.000 Y465.000
G1 X167.002 Y465.105
G1 X167.007 Y465.209
G1 X167.016 Y465.314
G1 X167.029 Y465.418
G1 X167.046 Y465.521
G1 X167.066 Y465.624
G1 X167.089 Y465.726
G1 X167.116 Y465.827
G1 X167.147 Y465.927
G1 X167.181 Y466.026
G1 X167.218 Y466.124
G1 X167.259 Y466.220
G1 X167.304 Y466.315
G1 X167.351 Y466.408
G1 X167.402 Y466.500
G1 X167.456 Y466.590
G1 X167.513 Y466.678
G1 X167.573 Y466.763
G1 X167.636 Y466.847
G1 X167.702 Y466.928
G1 X167.771 Y467.007
G1 X167.842 Y467.084
G1 X167.916 Y467.158
G1 X167.993 Y467.229
G1 X168.072 Y467.298
G1 X168.153 Y467.364
G1 X168.237 Y467.427
G1 X168.322 Y467.487
G1 X168.410 Y467.544
G1 X168.500 Y467.598
G1 X168.592 Y467.649
G1 X168.685 Y467.696
G1 X168.780 Y467.741
G1 X168.876 Y467.782
G1 X168.974 Y467.819
G1 X169.073 Y467.853
G1 X169.173 Y467.884
G1 X169.274 Y467.911
G1 X169.376 Y467.934
G1 X169.479 Y467.954
G1 X169.582 Y467.971
G1 X169.686 Y467.984
G1 X169.791 Y467.993
G1 X169.895 Y467.998
G1 X170.000 Y468.000
G1 X170.000 Y468.000 Z5
G0 X170.000 Y511.000 Z5
G1 X170.000 Y511.000 Z-1
G1 X170.209 Y510.996
G1 X170.419 Y510.985
G1 X170.627 Y510.967
G1 X170.835 Y510.942
G1 X171.042 Y510.909
G1 X171.247 Y510.869
G1 X171.452 Y510.822
G1 X171.654 Y510.768
G1 X171.854 Y510.706
G1 X172.052 Y510.638
G1 X172.248 Y510.563
G1 X172.440 Y510.481
G1 X172.630 Y510.393
G1 X172.817 Y510.298
G1 X173.000 Y510.196
G1 X173.180 Y510.088
G1 X173.355 Y509.974
G1 X173.527 Y509.854
G1 X173.694 Y509.728
G1 X173.857 Y509.596
G1 X174.015 Y509.459
G1 X174.168 Y509.316
G1 X174.316 Y509.168
G1 X174.459 Y509.015
G1 X174.596 Y508.857
G1 X174.728 Y508.694
G1 X174.854 Y508.527
G1 X174.974 Y508.355
G1 X175.088 Y508.180
G1 X175.196 Y508.000
G1 X175.298 Y507.817
G1 X175.393 Y507.630
G1 X175.481 Y507.440
G1 X175.563 Y507.248
G1 X175.638 Y507.052
G1 X175.706 Y506.854
G1 X175.768 Y506.654
G1 X175.822 Y506.452
G1 X175.869 Y506.247
G1 X175.909 Y506.042
G1 X175.942 Y505.835
G1 X175.967 Y505.627
G1 X175.985 Y505.419
G1 X175.996 Y505.209
G1 X176.000 Y505.000
G1 X175.996 Y504.791
G1 X175.985 Y504.581
G1 X175.967 Y504.373
G1 X175.942 Y504.165
G1 X175.909 Y503.958
G1 X175.869 Y503.753
G1 X175.822 Y503.548
G1 X175.768 Y503.346
G1 X175.706 Y503.146
G1 X175.638 Y502.948
G1 X175.563 Y502.752
G1 X175.481 Y502.560
G1 X175.393 Y502.370
G1 X175.298 Y502.183
G1 X175.196 Y502.000
G1 X175.088 Y501.820
G1 X174.974 Y501.645
G1 X174.854 Y501.473
G1 X174.728 Y501.306
G1 X174.596 Y501.143
G1 X174.459 Y500.985
G1 X174.316 Y500.832
G1 X174.168 Y500.684
G1 X174.015 Y500.541
G1 X173.857 Y500.404
G1 X173.694 Y500.272
G1 X173.527 Y500.146
G1 X173.355 Y500.026
G1 X173.180 Y499.912
G1 X173.000 Y499.804
G1 X172.817 Y499.702
G1 X172.630 Y499.607
G1 X172.440 Y499.519
G1 X172.248 Y499.437
G1 X172.052 Y499.362
G1 X171.854 Y499.294
G1 X171.654 Y499.232
G1 X171.452 Y499.178
G1 X171.247 Y499.131
G1 X171.042 Y499.091
G1 X170.835 Y499.058
G1 X170.627 Y499.033
G1 X170.419 Y499.015
G1 X170.209 Y499.004
G1 X170.000 Y499.000
G1 X169.791 Y499.004
G1 X169.581 Y499.015
G1 X169.373 Y499.033
G1 X169.165 Y499.058
G1 X168.958 Y499.091
G1 X168.753 Y499.131
G1 X168.548 Y499.178
G1 X168.346 Y499.232
G1 X168.146 Y499.294
G1 X167.948 Y499.362
G1 X167.752 Y499.437
G1 X167.560 Y499.519
G1 X167.370 Y499.607
G1 X167.183 Y499.702
G1 X167.000 Y499.804
G1 X166.820 Y499.912
G1 X166.645 Y500.026
G1 X166.473 Y500.146
G1 X166.306 Y500.272
G1 X166.143 Y500.404
G1 X165.985 Y500.541
G1 X165.832 Y500.684
G1 X165.684 Y500.832
G1 X165.541 Y500.985
G1 X165.404 Y501.143
G1 X165.272 Y501.306
G1 X165.146 Y501.473
G1 X165.026 Y501.645
G1 X164.912 Y501.820
G1 X164.804 Y502.000
G1 X164.702 Y502.183
G1 X164.607 Y502.370
G1 X164.519 Y502.560
G1 X164.437 Y502.752
G1 X164.362 Y502.948
G1 X164.294 Y503.146
G1 X164.232 Y503.346
G1 X164.178 Y503.548
G1 X164.131 Y503.753
G1 X164.091 Y503.958
G1 X164.058 Y504.165
G1 X164.033 Y504.373
G1 X164.015 Y504.581
G1 X164.004 Y504.791
G1 X164.000 Y505.000
G1 X164.004 Y505.209
G1 X164.015 Y505.419
G1 X164.033 Y505.627
G1 X164.058 Y505.835
G1 X164.091 Y506.042
G1 X164.131 Y506.247
G1 X164.178 Y506.452
G1 X164.232 Y506.654
G1 X164.294 Y506.854
G1 X164.362 Y507.052
G1 X164.437 Y507.248
G1 X164.519 Y507.440
G1 X164.607 Y507.630
G1 X164.702 Y507.817
G1 X164.804 Y508.000
G1 X164.912 Y508.180
G1 X165.026 Y508.355
G1 X165.146 Y508.527
G1 X165.272 Y508.694
G1 X165.404 Y508.857
G1 X165.541 Y509.015
G1 X165.684 Y509.168
G1 X165.832 Y509.316
G1 X165.985 Y509.459
G1 X166.143 Y509.596
G1 X166.306 Y509.728
G1 X166.473 Y509.854
G1 X166.645 Y509.974
G1 X166.820 Y510.088
G1 X167.000 Y510.196
G1 X167.183 Y510.298
G1 X167.370 Y510.393
G1 X167.560 Y510.481
G1 X167.752 Y510.563
G1 X167.948 Y510.638
G1 X168.146 Y510.706
G1 X168.346 Y510.768
G1 X168.548 Y510.822
G1 X168.753 Y510.869
G1 X168.958 Y510.909
G1 X169.165 Y510.942
G1 X169.373 Y510.967
G1 X169.581 Y510.985
G1 X169.791 Y510.996
G1 X170.000 Y511.000
G1 X170.000 Y508.000
G1 X170.105 Y507.998
G1 X170.209 Y507.993
G1 X170.314 Y507.984
G1 X170.418 Y507.971
G1 X170.521 Y507.954
G1 X170.624 Y507.934
G1 X170.726 Y507.911
G1 X170.827 Y507.884
G1 X170.927 Y507.853
G1 X171.026 Y507.819
G1 X171.124 Y507.782
G1 X171.220 Y507.741
G1 X171.315 Y507.696
G1 X171.408 Y507.649
G1 X171.500 Y507.598
G1 X171.590 Y507.544
G1 X171.678 Y507.487
G1 X171.763 Y507.427
G1 X171.847 Y507.364
G1 X171.928 Y507.298
G1 X172.007 Y507.229
G1 X172.084 Y507.158
G1 X172.158 Y507.084
G1 X172.229 Y507.007
G1 X172.298 Y506.928
G1 X172.364 Y506.847
G1 X172.427 Y506.763
G1 X172.487 Y506.678
G1 X172.544 Y506.590
G1 X172.598 Y506.500
G1 X172.649 Y506.408
G1 X172.696 Y506.315
G1 X172.741 Y506.220
G1 X172.782 Y506.124
G1 X172.819 Y506.026
G1 X172.853 Y505.927
G1 X172.884 Y505.827
G1 X172.911 Y505.726
G1 X172.934 Y505.624
G1 X172.954 Y505.521
G1 X172.971 Y505.418
G1 X172.984 Y505.314
G1 X172.993 Y505.209
G1 X172.998 Y505.105
G1 X173.000 Y505.000
G1 X172.998 Y504.895
G1 X172.993 Y504.791
G1 X172.984 Y504.686
G1 X172.971 Y504.582
G1 X172.954 Y504.479
G1 X172.934 Y504.376
G1 X172.911 Y504.274
G1 X172.884 Y504.173
G1 X172.853 Y504.073
G1 X172.819 Y503.974
G1 X172.782 Y503.876
G1 X172.741 Y503.780
G1 X172.696 Y503.685
G1 X172.649 Y503.592
G1 X172.598 Y503.500
G1 X172.544 Y503.410
G1 X172.487 Y503.322
G1 X172.427 Y503.237
G1 X172.364 Y503.153
G1 X172.298 Y503.072
G1 X172.229 Y502.993
G1 X172.158 Y502.916
G1 X172.084 Y502.842
G1 X172.007 Y502.771
G1 X171.928 Y502.702
G1 X171.847 Y502.636
G1 X171.763 Y502.573
G1 X171.678 Y502.513
G1 X171.590 Y502.456
G1 X171.500 Y502.402
G1 X171.408 Y502.351
G1 X171.315 Y502.304
G1 X171.220 Y502.259
G1 X171.124 Y502.218
G1 X171.026 Y502.181
G1 X170.927 Y502.147
G1 X170.827 Y502.116
G1 X170.726 Y502.089
G1 X170.624 Y502.066
G1 X170.521 Y502.046
G1 X170.418 Y502.029
G1 X170.314 Y502.016
G1 X170.209 Y502.007
G1 X170.105 Y502.002
G1 X170.000 Y502.000
G1 X169.895 Y502.002
G1 X169.791 Y502.007
G1 X169.686 Y502.016
G1 X169.582 Y502.029
G1 X169.479 Y502.046
G1 X169.376 Y502.066
G1 X169.274 Y502.089
G1 X169.173 Y502.116
G1 X169.073 Y502.147
G1 X168.974 Y502.181
G1 X168.876 Y502.218
G1 X168.780 Y502.259
G1 X168.685 Y502.304
G1 X168.592 Y502.351
G1 X168.500 Y502.402
G1 X168.410 Y502.456
G1 X168.322 Y502.513
G1 X168.237 Y502.573
G1 X168.153 Y502.636
G1 X168.072 Y502.702
G1 X167.993 Y502.771
G1 X167.916 Y502.842
G1 X167.842 Y502.916
G1 X167.771 Y502.993
G1 X167.702 Y503.072
G1 X167.636 Y503.153
G1 X167.573 Y503.237
G1 X167.513 Y503.322
G1 X167.456 Y503.410
G1 X167.402 Y503.500
G1 X167.351 Y503.592
G1 X167.304 Y503.685
G1 X167.259 Y503.780
G1 X167.218 Y503.876
G1 X167.181 Y503.974
G1 X167.147 Y504.073
G1 X167.116 Y504.173
G1 X167.089 Y504.274
G1 X167.066 Y504.376
G1 X167.046 Y504.479
G1 X167.029 Y504.582
G1 X167.016 Y504.686
G1 X167.007 Y504.791
G1 X167.002 Y504.895
G1 X167.000 Y505.000
G1 X167.002 Y505.105
G1 X167.007 Y505.209
G1 X167.016 Y505.314
G1 X167.029 Y505.418
G1 X167.046 Y505.521
G1 X167.066 Y505.624
G1 X167.089 Y505.726
G1 X167.116 Y505.827
G1 X167.147 Y505.927
G1 X167.181 Y506.026
G1 X167.218 Y506.124
G1 X167.259 Y506.220
G1 X167.304 Y506.315
G1 X167.351 Y506.408
G1 X167.402 Y506.500
G1 X167.456 Y506.590
G1 X167.513 Y506.678
G1 X167.573 Y506.763
G1 X167.636 Y506.847
G1 X167.702 Y506.928
G1 X167.771 Y507.007
G1 X167.842 Y507.084
G1 X167.916 Y507.158
G1 X167.993 Y507.229
G1 X168.072 Y507.298
G1 X168.153 Y507.364
G1 X168.237 Y507.427
G1 X168.322 Y507.487
G1 X168.410 Y507.544
G1 X168.500 Y507.598
G1 X168.592 Y507.649
G1 X168.685 Y507.696
G1 X168.780 Y507.741
G1 X168.876 Y507.782
G1 X168.974 Y507.819
G1 X169.073 Y507.853
G1 X169.173 Y507.884
G1 X169.274 Y507.911
G1 X169.376 Y507.934
G1 X169.479 Y507.954
G1 X169.582 Y507.971
G1 X169.686 Y507.984
G1 X169.791 Y507.993
G1 X169.895 Y507.998
G1 X170.000 Y508.000
G1 X170.000 Y508.000 Z5
G0 X170.000 Y551.000 Z5
G1 X170.000 Y551.000 Z-1
G1 X170.209 Y550.996
G1 X170.419 Y550.985
G1 X170.627 Y550.967
G1 X170.835 Y550.942
G1 X171.042 Y550.909
G1 X171.247 Y550.869
G1 X171.452 Y550.822
G1 X171.654 Y550.768
G1 X171.854 Y550.706
G1 X172.052 Y550.638
G1 X172.248 Y550.563
G1 X172.440 Y550.481
G1 X172.630 Y550.393
G1 X172.817 Y550.298
G1 X173.000 Y550.196
G1 X173.180 Y550.088
G1 X173.355 Y549.974
G1 X173.527 Y549.854
G1 X173.694 Y549.728
G1 X173.857 Y549.596
G1 X174.015 Y549.459
G1 X174.168 Y549.316
G1 X174.316 Y549.168
G1 X174.459 Y549.015
G1 X174.596 Y548.857
G1 X174.728 Y548.694
G1 X174.854 Y548.527
G1 X174.974 Y548.355
G1 X175.088 Y548.180
G1 X175.196 Y548.000
G1 X175.298 Y547.817
G1 X175.393 Y547.630
G1 X175.481 Y547.440
G1 X175.563 Y547.248
G1 X175.638 Y547.052
G1 X175.706 Y546.854
G1 X175.768 Y546.654
G1 X175.822 Y546.452
G1 X175.869 Y546.247
G1 X175.909 Y546.042
G1 X175.942 Y545.835
G1 X175.967 Y545.627
G1 X175.985 Y545.419
G1 X175.996 Y545.209
G1 X176.000 Y545.000
G1 X175.996 Y544.791
G1 X175.985 Y544.581
G1 X175.967 Y544.373
G1 X175.942 Y544.165
G1 X175.909 Y543.958
G1 X175.869 Y543.753
G1 X175.822 Y543.548
G1 X175.768 Y543.346
G1 X175.706 Y543.146
G1 X175.638 Y542.948
G1 X175.563 Y542.752
G1 X175.481 Y542.560
G1 X175.393 Y542.370
G1 X175.298 Y542.183
G1 X175.196 Y542.000
G1 X175.088 Y541.820
G1 X174.974 Y541.645
G1 X174.854 Y541.473
G1 X174.728 Y541.306
G1 X174.596 Y541.143
G1 X174.459 Y540.985
G1 X174.316 Y540.832
G1 X174.168 Y540.684
G1 X174.015 Y540.541
G1 X173.857 Y540.404
G1 X173.694 Y540.272
G1 X173.527 Y540.146
G1 X173.355 Y540.026
G1 X173.180 Y539.912
G1 X173.000 Y539.804
G1 X172.817 Y539.702
G1 X172.630 Y539.607
G1 X172.440 Y539.519
G1 X172.248 Y539.437
G1 X172.052 Y539.362
G1 X171.854 Y539.294
G1 X171.654 Y539.232
G1 X171.452 Y539.178
G1 X171.247 Y539.131
G1 X171.042 Y539.091
G1 X170.835 Y539.058
G1 X170.627 Y539.033
G1 X170.419 Y539.015
G1 X170.209 Y539.004
G1 X170.000 Y539.000
G1 X169.791 Y539.004
G1 X169.581 Y539.015
G1 X169.373 Y539.033
G1 X169.165 Y539.058
G1 X168.958 Y539.091
G1 X168.753 Y539.131
G1 X168.548 Y539.178
G1 X168.346 Y539.232
G1 X168.146 Y539.294
G1 X167.948 Y539.362
G1 X167.752 Y539.437
G1 X167.560 Y539.519
G1 X167.370 Y539.607
G1 X167.183 Y539.702
G1 X167.000 Y539.804
G1 X166.820 Y539.912
G1 X166.645 Y540.026
G1 X166.473 Y540.146
G1 X166.306 Y540.272
G1 X166.143 Y540.404
G1 X165.985 Y540.541
G1 X165.832 Y540.684
G1 X165.684 Y540.832
G1 X165.541 Y540.985
G1 X165.404 Y541.143
G1 X165.272 Y541.306
G1 X165.146 Y541.473
G1 X165.026 Y541.645
G1 X164.912 Y541.820
G1 X164.804 Y542.000
G1 X164.702 Y542.183
G1 X164.607 Y542.370
G1 X164.519 Y542.560
G1 X164.437 Y542.752
G1 X164.362 Y542.948
G1 X164.294 Y543.146
G1 X164.232 Y543.346
G1 X164.178 Y543.548
G1 X164.131 Y543.753
G1 X164.091 Y543.958
G1 X164.058 Y544.165
G1 X164.033 Y544.373
G1 X164.015 Y544.581
G1 X164.004 Y544.791
G1 X164.000 Y545.000
G1 X164.004 Y545.209
G1 X164.015 Y545.419
G1 X164.033 Y545.627
G1 X164.058 Y545.835
G1 X164.091 Y546.042
G1 X164.131 Y546.247
G1 X164.178 Y546.452
G1 X164.232 Y546.654
G1 X164.294 Y546.854
G1 X164.362 Y547.052
G1 X164.437 Y547.248
G1 X164.519 Y547.440
G1 X164.607 Y547.630
G1 X164.702 Y547.817
G1 X164.804 Y548.000
G1 X164.912 Y548.180
G1 X165.026 Y548.355
G1 X165.146 Y548.527
G1 X165.272 Y548.694
G1 X165.404 Y548.857
G1 X165.541 Y549.015
G1 X165.684 Y549.168
G1 X165.832 Y549.316
G1 X165.985 Y549.459
G1 X166.143 Y549.596
G1 X166.306 Y549.728
G1 X166.473 Y549.854
G1 X166.645 Y549.974
G1 X166.820 Y550.088
G1 X167.000 Y550.196
G1 X167.183 Y550.298
G1 X167.370 Y550.393
G1 X167.560 Y550.481
G1 X167.752 Y550.563
G1 X167.948 Y550.638
G1 X168.146 Y550.706
G1 X168.346 Y550.768
G1 X168.548 Y550.822
G1 X168.753 Y550.869
G1 X168.958 Y550.909
G1 X169.165 Y550.942
G1 X169.373 Y550.967
G1 X169.581 Y550.985
G1 X169.791 Y550.996
G1 X170.000 Y551.000
G1 X170.000 Y548.000
G1 X170.105 Y547.998
G1 X170.209 Y547.993
G1 X170.314 Y547.984
G1 X170.418 Y547.971
G1 X170.521 Y547.954
G1 X170.624 Y547.934
G1 X170.726 Y547.911
G1 X170.827 Y547.884
G1 X170.927 Y547.853
G1 X171.026 Y547.819
G1 X171.124 Y547.782
G1 X171.220 Y547.741
G1 X171.315 Y547.696
G1 X171.408 Y547.649
G1 X171.500 Y547.598
G1 X171.590 Y547.544
G1 X171.678 Y547.487
G1 X171.763 Y547.427
G1 X171.847 Y547.364
G1 X171.928 Y547.298
G1 X172.007 Y547.229
G1 X172.084 Y547.158
G1 X172.158 Y547.084
G1 X172.229 Y547.007
G1 X172.298 Y546.928
G1 X172.364 Y546.847
G1 X172.427 Y546.763
G1 X172.487 Y546.678
G1 X172.544 Y546.590
G1 X172.598 Y546.500
G1 X172.649 Y546.408
G1 X172.696 Y546.315
G1 X172.741 Y546.220
G1 X172.782 Y546.124
G1 X172.819 Y546.026
G1 X172.853 Y545.927
G1 X172.884 Y545.827
G1 X172.911 Y545.726
G1 X172.934 Y545.624
G1 X172.954 Y545.521
G1 X172.971 Y545.418
G1 X172.984 Y545.314
G1 X172.993 Y545.209
G1 X172.998 Y545.105
G1 X173.000 Y545.000
G1 X172.998 Y544.895
G1 X172.993 Y544.791
G1 X172.984 Y544.686
G1 X172.971 Y544.582
G1 X172.954 Y544.479
G1 X172.934 Y544.376
G1 X172.911 Y544.274
G1 X172.884 Y544.173
G1 X172.853 Y544.073
G1 X172.819 Y543.974
G1 X172.782 Y543.876
G1 X172.741 Y543.780
G1 X172.696 Y543.685
G1 X172.649 Y543.592
G1 X172.598 Y543.500
G1 X172.544 Y543.410
G1 X172.487 Y543.322
G1 X172.427 Y543.237
G1 X172.364 Y543.153
G1 X172.298 Y543.072
G1 X172.229 Y542.993
G1 X172.158 Y542.916
G1 X172.084 Y542.842
G1 X172.007 Y542.771
G1 X171.928 Y542.702
G1 X171.847 Y542.636
G1 X171.763 Y542.573
G1 X171.678 Y542.513
G1 X171.590 Y542.456
G1 X171.500 Y542.402
G1 X171.408 Y542.351
G1 X171.315 Y542.304
G1 X171.220 Y542.259
G1 X171.124 Y542.218
G1 X171.026 Y542.181
G1 X170.927 Y542.147
G1 X170.827 Y542.116
G1 X170.726 Y542.089
G1 X170.624 Y542.066
G1 X170.521 Y542.046
G1 X170.418 Y542.029
G1 X170.314 Y542.016
G1 X170.209 Y542.007
G1 X170.105 Y542.002
G1 X170.000 Y542.000
G1 X169.895 Y542.002
G1 X169.791 Y542.007
G1 X169.686 Y542.016
G1 X169.582 Y542.029
G1 X169.479 Y542.046
G1 X169.376 Y542.066
G1 X169.274 Y542.089
G1 X169.173 Y542.116
G1 X169.073 Y542.147
G1 X168.974 Y542.181
G1 X168.876 Y542.218
G1 X168.780 Y542.259
G1 X168.685 Y542.304
G1 X168.592 Y542.351
G1 X168.500 Y542.402
G1 X168.410 Y542.456
G1 X168.322 Y542.513
G1 X168.237 Y542.573
G1 X168.153 Y542.636
G1 X168.072 Y542.702
G1 X167.993 Y542.771
G1 X167.916 Y542.842
G1 X167.842 Y542.916
G1 X167.771 Y542.993
G1 X167.702 Y543.072
G1 X167.636 Y543.153
G1 X167.573 Y543.237
G1 X167.513 Y543.322
G1 X167.456 Y543.410
G1 X167.402 Y543.500
G1 X167.351 Y543.592
G1 X167.304 Y543.685
G1 X167.259 Y543.780
G1 X167.218 Y543.876
G1 X167.181 Y543.974
G1 X167.147 Y544.073
G1 X167.116 Y544.173
G1 X167.089 Y544.274
G1 X167.066 Y544.376
G1 X167.046 Y544.479
G1 X167.029 Y544.582
G1 X167.016 Y544.686
G1 X167.007 Y544.791
G1 X167.002 Y544.895
G1 X167.000 Y545.000
G1 X167.002 Y545.105
G1 X167.007 Y545.209
G1 X167.016 Y545.314
G1 X167.029 Y545.418
G1 X167.046 Y545.521
G1 X167.066 Y545.624
G1 X167.089 Y545.726
G1 X167.116 Y545.827
G1 X167.147 Y545.927
G1 X167.181 Y546.026
G1 X167.218 Y546.124
G1 X167.259 Y546.220
G1 X167.304 Y546.315
G1 X167.351 Y546.408
G1 X167.402 Y546.500
G1 X167.456 Y546.590
G1 X167.513 Y546.678
G1 X167.573 Y546.763
G1 X167.636 Y546.847
G1 X167.702 Y546.928
G1 X167.771 Y547.007
G1 X167.842 Y547.084
G1 X167.916 Y547.158
G1 X167.993 Y547.229
G1 X168.072 Y547.298
G1 X168.153 Y547.364
G1 X168.237 Y547.427
G1 X168.322 Y547.487
G1 X168.410 Y547.544
G1 X168.500 Y547.598
G1 X168.592 Y547.649
G1 X168.685 Y547.696
G1 X168.780 Y547.741
G1 X168.876 Y547.782
G1 X168.974 Y547.819
G1 X169.073 Y547.853
G1 X169.173 Y547.884
G1 X169.274 Y547.911
G1 X169.376 Y547.934
G1 X169.479 Y547.954
G1 X169.582 Y547.971
G1 X169.686 Y547.984
G1 X169.791 Y547.993
G1 X169.895 Y547.998
G1 X170.000 Y548.000
G1 X170.000 Y548.000 Z5
G0 X130.000 Y981.000 Z5
G1 X130.000 Y981.000 Z-1
G1 X130.209 Y980.996
G1 X130.419 Y980.985
G1 X130.627 Y980.967
G1 X130.835 Y980.942
G1 X131.042 Y980.909
G1 X131.247 Y980.869
G1 X131.452 Y980.822
G1 X131.654 Y980.768
G1 X131.854 Y980.706
G1 X132.052 Y980.638
G1 X132.248 Y980.563
G1 X132.440 Y980.481
G1 X132.630 Y980.393
G1 X132.817 Y980.298
G1 X133.000 Y980.196
G1 X133.180 Y980.088
G1 X133.355 Y979.974
G1 X133.527 Y979.854
G1 X133.694 Y979.728
G1 X133.857 Y979.596
G1 X134.015 Y979.459
G1 X134.168 Y979.316
G1 X134.316 Y979.168
G1 X134.459 Y979.015
G1 X134.596 Y978.857
G1 X134.728 Y978.694
G1 X134.854 Y978.527
G1 X134.974 Y978.355
G1 X135.088 Y978.180
G1 X135.196 Y978.000
G1 X135.298 Y977.817
G1 X135.393 Y977.630
G1 X135.481 Y977.440
G1 X135.563 Y977.248
G1 X135.638 Y977.052
G1 X135.706 Y976.854
G1 X135.768 Y976.654
G1 X135.822 Y976.452
G1 X135.869 Y976.247
G1 X135.909 Y976.042
G1 X135.942 Y975.835
G1 X135.967 Y975.627
G1 X135.985 Y975.419
G1 X135.996 Y975.209
G1 X136.000 Y975.000
G1 X135.996 Y974.791
G1 X135.985 Y974.581
G1 X135.967 Y974.373
G1 X135.942 Y974.165
G1 X135.909 Y973.958
G1 X135.869 Y973.753
G1 X135.822 Y973.548
G1 X135.768 Y973.346
G1 X135.706 Y973.146
G1 X135.638 Y972.948
G1 X135.563 Y972.752
G1 X135.481 Y972.560
G1 X135.393 Y972.370
G1 X135.298 Y972.183
G1 X135.196 Y972.000
G1 X135.088 Y971.820
G1 X134.974 Y971.645
G1 X134.854 Y971.473
G1 X134.728 Y971.306
G1 X134.596 Y971.143
G1 X134.459 Y970.985
G1 X134.316 Y970.832
G1 X134.168 Y970.684
G1 X134.015 Y970.541
G1 X133.857 Y970.404
G1 X133.694 Y970.272
G1 X133.527 Y970.146
G1 X133.355 Y970.026
G1 X133.180 Y969.912
G1 X133.000 Y969.804
G1 X132.817 Y969.702
G1 X132.630 Y969.607
G1 X132.440 Y969.519
G1 X132.248 Y969.437
G1 X132.052 Y969.362
G1 X131.854 Y969.294
G1 X131.654 Y969.232
G1 X131.452 Y969.178
G1 X131.247 Y969.131
G1 X131.042 Y969.091
G1 X130.835 Y969.058
G1 X130.627 Y969.033
G1 X130.419 Y969.015
G1 X130.209 Y969.004
G1 X130.000 Y969.000
G1 X129.791 Y969.004
G1 X129.581 Y969.015
G1 X129.373 Y969.033
G1 X129.165 Y969.058
G1 X128.958 Y969.091
G1 X128.753 Y969.131
G1 X128.548 Y969.178
G1 X128.346 Y969.232
G1 X128.146 Y969.294
G1 X127.948 Y969.362
G1 X127.752 Y969.437
G1 X127.560 Y969.519
G1 X127.370 Y969.607
G1 X127.183 Y969.702
G1 X127.000 Y969.804
G1 X126.820 Y969.912
G1 X126.645 Y970.026
G1 X126.473 Y970.146
G1 X126.306 Y970.272
G1 X126.143 Y970.404
G1 X125.985 Y970.541
G1 X125.832 Y970.684
G1 X125.684 Y970.832
G1 X125.541 Y970.985
G1 X125.404 Y971.143
G1 X125.272 Y971.306
G1 X125.146 Y971.473
G1 X125.026 Y971.645
G1 X124.912 Y971.820
G1 X124.804 Y972.000
G1 X124.702 Y972.183
G1 X124.607 Y972.370
G1 X124.519 Y972.560
G1 X124.437 Y972.752
G1 X124.362 Y972.948
G1 X124.294 Y973.146
G1 X124.232 Y973.346
G1 X124.178 Y973.548
G1 X124.131 Y973.753
G1 X124.091 Y973.958
G1 X124.058 Y974.165
G1 X124.033 Y974.373
G1 X124.015 Y974.581
G1 X124.004 Y974.791
G1 X124.000 Y975.000
G1 X124.004 Y975.209
G1 X124.015 Y975.419
G1 X124.033 Y975.627
G1 X124.058 Y975.835
G1 X124.091 Y976.042
G1 X124.131 Y976.247
G1 X124.178 Y976.452
G1 X124.232 Y976.654
G1 X124.294 Y976.854
G1 X124.362 Y977.052
G1 X124.437 Y977.248
G1 X124.519 Y977.440
G1 X124.607 Y977.630
G1 X124.702 Y977.817
G1 X124.804 Y978.000
G1 X124.912 Y978.180
G1 X125.026 Y978.355
G1 X125.146 Y978.527
G1 X125.272 Y978.694
G1 X125.404 Y978.857
G1 X125.541 Y979.015
G1 X125.684 Y979.168
G1 X125.832 Y979.316
G1 X125.985 Y979.459
G1 X126.143 Y979.596
G1 X126.306 Y979.728
G1 X126.473 Y979.854
G1 X126.645 Y979.974
G1 X126.820 Y980.088
G1 X127.000 Y980.196
G1 X127.183 Y980.298
G1 X127.370 Y980.393
G1 X127.560 Y980.481
G1 X127.752 Y980.563
G1 X127.948 Y980.638
G1 X128.146 Y980.706
G1 X128.346 Y980.768
G1 X128.548 Y980.822
G1 X128.753 Y980.869
G1 X128.958 Y980.909
G1 X129.165 Y980.942
G1 X129.373 Y980.967
G1 X129.581 Y980.985
G1 X129.791 Y980.996
G1 X130.000 Y981.000
G1 X130.000 Y978.000
G1 X130.105 Y977.998
G1 X130.209 Y977.993
G1 X130.314 Y977.984
G1 X130.418 Y977.971
G1 X130.521 Y977.954
G1 X130.624 Y977.934
G1 X130.726 Y977.911
G1 X130.827 Y977.884
G1 X130.927 Y977.853
G1 X131.026 Y977.819
G1 X131.124 Y977.782
G1 X131.220 Y977.741
G1 X131.315 Y977.696
G1 X131.408 Y977.649
G1 X131.500 Y977.598
G1 X131.590 Y977.544
G1 X131.678 Y977.487
G1 X131.763 Y977.427
G1 X131.847 Y977.364
G1 X131.928 Y977.298
G1 X132.007 Y977.229
G1 X132.084 Y977.158
G1 X132.158 Y977.084
G1 X132.229 Y977.007
G1 X132.298 Y976.928
G1 X132.364 Y976.847
G1 X132.427 Y976.763
G1 X132.487 Y976.678
G1 X132.544 Y976.590
G1 X132.598 Y976.500
G1 X132.649 Y976.408
G1 X132.696 Y976.315
G1 X132.741 Y976.220
G1 X132.782 Y976.124
G1 X132.819 Y976.026
G1 X132.853 Y975.927
G1 X132.884 Y975.827
G1 X132.911 Y975.726
G1 X132.934 Y975.624
G1 X132.954 Y975.521
G1 X132.971 Y975.418
G1 X132.984 Y975.314
G1 X132.993 Y975.209
G1 X132.998 Y975.105
G1 X133.000 Y975.000
G1 X132.998 Y974.895
G1 X132.993 Y974.791
G1 X132.984 Y974.686
G1 X132.971 Y974.582
G1 X132.954 Y974.479
G1 X132.934 Y974.376
G1 X132.911 Y974.274
G1 X132.884 Y974.173
G1 X132.853 Y974.073
G1 X132.819 Y973.974
G1 X132.782 Y973.876
G1 X132.741 Y973.780
G1 X132.696 Y973.685
G1 X132.649 Y973.592
G1 X132.598 Y973.500
G1 X132.544 Y973.410
G1 X132.487 Y973.322
G1 X132.427 Y973.237
G1 X132.364 Y973.153
G1 X132.298 Y973.072
G1 X132.229 Y972.993
G1 X132.158 Y972.916
G1 X132.084 Y972.842
G1 X132.007 Y972.771
G1 X131.928 Y972.702
G1 X131.847 Y972.636
G1 X131.763 Y972.573
G1 X131.678 Y972.513
G1 X131.590 Y972.456
G1 X131.500 Y972.402
G1 X131.408 Y972.351
G1 X131.315 Y972.304
G1 X131.220 Y972.259
G1 X131.124 Y972.218
G1 X131.026 Y972.181
G1 X130.927 Y972.147
G1 X130.827 Y972.116
G1 X130.726 Y972.089
G1 X130.624 Y972.066
G1 X130.521 Y972.046
G1 X130.418 Y972.029
G1 X130.314 Y972.016
G1 X130.209 Y972.007
G1 X130.105 Y972.002
G1 X130.000 Y972.000
G1 X129.895 Y972.002
G1 X129.791 Y972.007
G1 X129.686 Y972.016
G1 X129.582 Y972.029
G1 X129.479 Y972.046
G1 X129.376 Y972.066
G1 X129.274 Y972.089
G1 X129.173 Y972.116
G1 X129.073 Y972.147
G1 X128.974 Y972.181
G1 X128.876 Y972.218
G1 X128.780 Y972.259
G1 X128.685 Y972.304
G1 X128.592 Y972.351
G1 X128.500 Y972.402
G1 X128.410 Y972.456
G1 X128.322 Y972.513
G1 X128.237 Y972.573
G1 X128.153 Y972.636
G1 X128.072 Y972.702
G1 X127.993 Y972.771
G1 X127.916 Y972.842
G1 X127.842 Y972.916
G1 X127.771 Y972.993
G1 X127.702 Y973.072
G1 X127.636 Y973.153
G1 X127.573 Y973.237
G1 X127.513 Y973.322
G1 X127.456 Y973.410
G1 X127.402 Y973.500
G1 X127.351 Y973.592
G1 X127.304 Y973.685
G1 X127.259 Y973.780
G1 X127.218 Y973.876
G1 X127.181 Y973.974
G1 X127.147 Y974.073
G1 X127.116 Y974.173
G1 X127.089 Y974.274
G1 X127.066 Y974.376
G1 X127.046 Y974.479
G1 X127.029 Y974.582
G1 X127.016 Y974.686
G1 X127.007 Y974.791
G1 X127.002 Y974.895
G1 X127.000 Y975.000
G1 X127.002 Y975.105
G1 X127.007 Y975.209
G1 X127.016 Y975.314
G1 X127.029 Y975.418
G1 X127.046 Y975.521
G1 X127.066 Y975.624
G1 X127.089 Y975.726
G1 X127.116 Y975.827
G1 X127.147 Y975.927
G1 X127.181 Y976.026
G1 X127.218 Y976.124
G1 X127.259 Y976.220
G1 X127.304 Y976.315
G1 X127.351 Y976.408
G1 X127.402 Y976.500
G1 X127.456 Y976.590
G1 X127.513 Y976.678
G1 X127.573 Y976.763
G1 X127.636 Y976.847
G1 X127.702 Y976.928
G1 X127.771 Y977.007
G1 X127.842 Y977.084
G1 X127.916 Y977.158
G1 X127.993 Y977.229
G1 X128.072 Y977.298
G1 X128.153 Y977.364
G1 X128.237 Y977.427
G1 X128.322 Y977.487
G1 X128.410 Y977.544
G1 X128.500 Y977.598
G1 X128.592 Y977.649
G1 X128.685 Y977.696
G1 X128.780 Y977.741
G1 X128.876 Y977.782
G1 X128.974 Y977.819
G1 X129.073 Y977.853
G1 X129.173 Y977.884
G1 X129.274 Y977.911
G1 X129.376 Y977.934
G1 X129.479 Y977.954
G1 X129.582 Y977.971
G1 X129.686 Y977.984
G1 X129.791 Y977.993
G1 X129.895 Y977.998
G1 X130.000 Y978.000
G1 X130.000 Y978.000 Z5
G0 X130.000 Y1021.000 Z5
G1 X130.000 Y1021.000 Z-1
G1 X130.209 Y1020.996
G1 X130.419 Y1020.985
G1 X130.627 Y1020.967
G1 X130.835 Y1020.942
G1 X131.042 Y1020.909
G1 X131.247 Y1020.869
G1 X131.452 Y1020.822
G1 X131.654 Y1020.768
G1 X131.854 Y1020.706
G1 X132.052 Y1020.638
G1 X132.248 Y1020.563
G1 X132.440 Y1020.481
G1 X132.630 Y1020.393
G1 X132.817 Y1020.298
G1 X133.000 Y1020.196
G1 X133.180 Y1020.088
G1 X133.355 Y1019.974
G1 X133.527 Y1019.854
G1 X133.694 Y1019.728
G1 X133.857 Y1019.596
G1 X134.015 Y1019.459
G1 X134.168 Y1019.316
G1 X134.316 Y1019.168
G1 X134.459 Y1019.015
G1 X134.596 Y1018.857
G1 X134.728 Y1018.694
G1 X134.854 Y1018.527
G1 X134.974 Y1018.355
G1 X135.088 Y1018.180
G1 X135.196 Y1018.000
G1 X135.298 Y1017.817
G1 X135.393 Y1017.630
G1 X135.481 Y1017.440
G1 X135.563 Y1017.248
G1 X135.638 Y1017.052
G1 X135.706 Y1016.854
G1 X135.768 Y1016.654
G1 X135.822 Y1016.452
G1 X135.869 Y1016.247
G1 X135.909 Y1016.042
G1 X135.942 Y1015.835
G1 X135.967 Y1015.627
G1 X135.985 Y1015.419
G1 X135.996 Y1015.209
G1 X136.000 Y1015.000
G1 X135.996 Y1014.791
G1 X135.985 Y1014.581
G1 X135.967 Y1014.373
G1 X135.942 Y1014.165
G1 X135.909 Y1013.958
G1 X135.869 Y1013.753
G1 X135.822 Y1013.548
G1 X135.768 Y1013.346
G1 X135.706 Y1013.146
G1 X135.638 Y1012.948
G1 X135.563 Y1012.752
G1 X135.481 Y1012.560
G1 X135.393 Y1012.370
G1 X135.298 Y1012.183
G1 X135.196 Y1012.000
G1 X135.088 Y1011.820
G1 X134.974 Y1011.645
G1 X134.854 Y1011.473
G1 X134.728 Y1011.306
G1 X134.596 Y1011.143
G1 X134.459 Y1010.985
G1 X134.316 Y1010.832
G1 X134.168 Y1010.684
G1 X134.015 Y1010.541
G1 X133.857 Y1010.404
G1 X133.694 Y1010.272
G1 X133.527 Y1010.146
G1 X133.355 Y1010.026
G1 X133.180 Y1009.912
G1 X133.000 Y1009.804
G1 X132.817 Y1009.702
G1 X132.630 Y1009.607
G1 X132.440 Y1009.519
G1 X132.248 Y1009.437
G1 X132.052 Y1009.362
G1 X131.854 Y1009.294
G1 X131.654 Y1009.232
G1 X131.452 Y1009.178
G1 X131.247 Y1009.131
G1 X131.042 Y1009.091
G1 X130.835 Y1009.058
G1 X130.627 Y1009.033
G1 X130.419 Y1009.015
G1 X130.209 Y1009.004
G1 X130.000 Y1009.000
G1 X129.791 Y1009.004
G1 X129.581 Y1009.015
G1 X129.373 Y1009.033
G1 X129.165 Y1009.058
G1 X128.958 Y1009.091
G1 X128.753 Y1009.131
G1 X128.548 Y1009.178
G1 X128.346 Y1009.232
G1 X128.146 Y1009.294
G1 X127.948 Y1009.362
G1 X127.752 Y1009.437
G1 X127.560 Y1009.519
G1 X127.370 Y1009.607
G1 X127.183 Y1009.702
G1 X127.000 Y1009.804
G1 X126.820 Y1009.912
G1 X126.645 Y1010.026
G1 X126.473 Y1010.146
G1 X126.306 Y1010.272
G1 X126.143 Y1010.404
G1 X125.985 Y1010.541
G1 X125.832 Y1010.684
G1 X125.684 Y1010.832
G1 X125.541 Y1010.985
G1 X125.404 Y1011.143
G1 X125.272 Y1011.306
G1 X125.146 Y1011.473
G1 X125.026 Y1011.645
G1 X124.912 Y1011.820
G1 X124.804 Y1012.000
G1 X124.702 Y1012.183
G1 X124.607 Y1012.370
G1 X124.519 Y1012.560
G1 X124.437 Y1012.752
G1 X124.362 Y1012.948
G1 X124.294 Y1013.146
G1 X124.232 Y1013.346
G1 X124.178 Y1013.548
G1 X124.131 Y1013.753
G1 X124.091 Y1013.958
G1 X124.058 Y1014.165
G1 X124.033 Y1014.373
G1 X124.015 Y1014.581
G1 X124.004 Y1014.791
G1 X124.000 Y1015.000
G1 X124.004 Y1015.209
G1 X124.015 Y1015.419
G1 X124.033 Y1015.627
G1 X124.058 Y1015.835
G1 X124.091 Y1016.042
G1 X124.131 Y1016.247
G1 X124.178 Y1016.452
G1 X124.232 Y1016.654
G1 X124.294 Y1016.854
G1 X124.362 Y1017.052
G1 X124.437 Y1017.248
G1 X124.519 Y1017.440
G1 X124.607 Y1017.630
G1 X124.702 Y1017.817
G1 X124.804 Y1018.000
G1 X124.912 Y1018.180
G1 X125.026 Y1018.355
G1 X125.146 Y1018.527
G1 X125.272 Y1018.694
G1 X125.404 Y1018.857
G1 X125.541 Y1019.015
G1 X125.684 Y1019.168
G1 X125.832 Y1019.316
G1 X125.985 Y1019.459
G1 X126.143 Y1019.596
G1 X126.306 Y1019.728
G1 X126.473 Y1019.854
G1 X126.645 Y1019.974
G1 X126.820 Y1020.088
G1 X127.000 Y1020.196
G1 X127.183 Y1020.298
G1 X127.370 Y1020.393
G1 X127.560 Y1020.481
G1 X127.752 Y1020.563
G1 X127.948 Y1020.638
G1 X128.146 Y1020.706
G1 X128.346 Y1020.768
G1 X128.548 Y1020.822
G1 X128.753 Y1020.869
G1 X128.958 Y1020.909
G1 X129.165 Y1020.942
G1 X129.373 Y1020.967
G1 X129.581 Y1020.985
G1 X129.791 Y1020.996
G1 X130.000 Y1021.000
G1 X130.000 Y1018.000
G1 X130.105 Y1017.998
G1 X130.209 Y1017.993
G1 X130.314 Y1017.984
G1 X130.418 Y1017.971
G1 X130.521 Y1017.954
G1 X130.624 Y1017.934
G1 X130.726 Y1017.911
G1 X130.827 Y1017.884
G1 X130.927 Y1017.853
G1 X131.026 Y1017.819
G1 X131.124 Y1017.782
G1 X131.220 Y1017.741
G1 X131.315 Y1017.696
G1 X131.408 Y1017.649
G1 X131.500 Y1017.598
G1 X131.590 Y1017.544
G1 X131.678 Y1017.487
G1 X131.763 Y1017.427
G1 X131.847 Y1017.364
G1 X131.928 Y1017.298
G1 X132.007 Y1017.229
G1 X132.084 Y1017.158
G1 X132.158 Y1017.084
G1 X132.229 Y1017.007
G1 X132.298 Y1016.928
G1 X132.364 Y1016.847
G1 X132.427 Y1016.763
G1 X132.487 Y1016.678
G1 X132.544 Y1016.590
G1 X132.598 Y1016.500
G1 X132.649 Y1016.408
G1 X132.696 Y1016.315
G1 X132.741 Y1016.220
G1 X132.782 Y1016.124
G1 X132.819 Y1016.026
G1 X132.853 Y1015.927
G1 X132.884 Y1015.827
G1 X132.911 Y1015.726
G1 X132.934 Y1015.624
G1 X132.954 Y1015.521
G1 X132.971 Y1015.418
G1 X132.984 Y1015.314
G1 X132.993 Y1015.209
G1 X132.998 Y1015.105
G1 X133.000 Y1015.000
G1 X132.998 Y1014.895
G1 X132.993 Y1014.791
G1 X132.984 Y1014.686
G1 X132.971 Y1014.582
G1 X132.954 Y1014.479
G1 X132.934 Y1014.376
G1 X132.911 Y1014.274
G1 X132.884 Y1014.173
G1 X132.853 Y1014.073
G1 X132.819 Y1013.974
G1 X132.782 Y1013.876
G1 X132.741 Y1013.780
G1 X132.696 Y1013.685
G1 X132.649 Y1013.592
G1 X132.598 Y1013.500
G1 X132.544 Y1013.410
G1 X132.487 Y1013.322
G1 X132.427 Y1013.237
G1 X132.364 Y1013.153
G1 X132.298 Y1013.072
G1 X132.229 Y1012.993
G1 X132.158 Y1012.916
G1 X132.084 Y1012.842
G1 X132.007 Y1012.771
G1 X131.928 Y1012.702
G1 X131.847 Y1012.636
G1 X131.763 Y1012.573
G1 X131.678 Y1012.513
G1 X131.590 Y1012.456
G1 X131.500 Y1012.402
G1 X131.408 Y1012.351
G1 X131.315 Y1012.304
G1 X131.220 Y1012.259
G1 X131.124 Y1012.218
G1 X131.026 Y1012.181
G1 X130.927 Y1012.147
G1 X130.827 Y1012.116
G1 X130.726 Y1012.089
G1 X130.624 Y1012.066
G1 X130.521 Y1012.046
G1 X130.418 Y1012.029
G1 X130.314 Y1012.016
G1 X130.209 Y1012.007
G1 X130.105 Y1012.002
G1 X130.000 Y1012.000
G1 X129.895 Y1012.002
G1 X129.791 Y1012.007
G1 X129.686 Y1012.016
G1 X129.582 Y1012.029
G1 X129.479 Y1012.046
G1 X129.376 Y1012.066
G1 X129.274 Y1012.089
G1 X129.173 Y1012.116
G1 X129.073 Y1012.147
G1 X128.974 Y1012.181
G1 X128.876 Y1012.218
G1 X128.780 Y1012.259
G1 X128.685 Y1012.304
G1 X128.592 Y1012.351
G1 X128.500 Y1012.402
G1 X128.410 Y1012.456
G1 X128.322 Y1012.513
G1 X128.237 Y1012.573
G1 X128.153 Y1012.636
G1 X128.072 Y1012.702
G1 X127.993 Y1012.771
G1 X127.916 Y1012.842
G1 X127.842 Y1012.916
G1 X127.771 Y1012.993
G1 X127.702 Y1013.072
G1 X127.636 Y1013.153
G1 X127.573 Y1013.237
G1 X127.513 Y1013.322
G1 X127.456 Y1013.410
G1 X127.402 Y1013.500
G1 X127.351 Y1013.592
G1 X127.304 Y1013.685
G1 X127.259 Y1013.780
G1 X127.218 Y1013.876
G1 X127.181 Y1013.974
G1 X127.147 Y1014.073
G1 X127.116 Y1014.173
G1 X127.089 Y1014.274
G1 X127.066 Y1014.376
G1 X127.046 Y1014.479
G1 X127.029 Y1014.582
G1 X127.016 Y1014.686
G1 X127.007 Y1014.791
G1 X127.002 Y1014.895
G1 X127.000 Y1015.000
G1 X127.002 Y1015.105
G1 X127.007 Y1015.209
G1 X127.016 Y1015.314
G1 X127.029 Y1015.418
G1 X127.046 Y1015.521
G1 X127.066 Y1015.624
G1 X127.089 Y1015.726
G1 X127.116 Y1015.827
G1 X127.147 Y1015.927
G1 X127.181 Y1016.026
G1 X127.218 Y1016.124
G1 X127.259 Y1016.220
G1 X127.304 Y1016.315
G1 X127.351 Y1016.408
G1 X127.402 Y1016.500
G1 X127.456 Y1016.590
G1 X127.513 Y1016.678
G1 X127.573 Y1016.763
G1 X127.636 Y1016.847
G1 X127.702 Y1016.928
G1 X127.771 Y1017.007
G1 X127.842 Y1017.084
G1 X127.916 Y1017.158
G1 X127.993 Y1017.229
G1 X128.072 Y1017.298
G1 X128.153 Y1017.364
G1 X128.237 Y1017.427
G1 X128.322 Y1017.487
G1 X128.410 Y1017.544
G1 X128.500 Y1017.598
G1 X128.592 Y1017.649
G1 X128.685 Y1017.696
G1 X128.780 Y1017.741
G1 X128.876 Y1017.782
G1 X128.974 Y1017.819
G1 X129.073 Y1017.853
G1 X129.173 Y1017.884
G1 X129.274 Y1017.911
G1 X129.376 Y1017.934
G1 X129.479 Y1017.954
G1 X129.582 Y1017.971
G1 X129.686 Y1017.984
G1 X129.791 Y1017.993
G1 X129.895 Y1017.998
G1 X130.000 Y1018.000
G1 X130.000 Y1018.000 Z5
G0 X130.000 Y1061.000 Z5
G1 X130.000 Y1061.000 Z-1
G1 X130.209 Y1060.996
G1 X130.419 Y1060.985
G1 X130.627 Y1060.967
G1 X130.835 Y1060.942
G1 X131.042 Y1060.909
G1 X131.247 Y1060.869
G1 X131.452 Y1060.822
G1 X131.654 Y1060.768
G1 X131.854 Y1060.706
G1 X132.052 Y1060.638
G1 X132.248 Y1060.563
G1 X132.440 Y1060.481
G1 X132.630 Y1060.393
G1 X132.817 Y1060.298
G1 X133.000 Y1060.196
G1 X133.180 Y1060.088
G1 X133.355 Y1059.974
G1 X133.527 Y1059.854
G1 X133.694 Y1059.728
G1 X133.857 Y1059.596
G1 X134.015 Y1059.459
G1 X134.168 Y1059.316
G1 X134.316 Y1059.168
G1 X134.459 Y1059.015
G1 X134.596 Y1058.857
G1 X134.728 Y1058.694
G1 X134.854 Y1058.527
G1 X134.974 Y1058.355
G1 X135.088 Y1058.180
G1 X135.196 Y1058.000
G1 X135.298 Y1057.817
G1 X135.393 Y1057.630
G1 X135.481 Y1057.440
G1 X135.563 Y1057.248
G1 X135.638 Y1057.052
G1 X135.706 Y1056.854
G1 X135.768 Y1056.654
G1 X135.822 Y1056.452
G1 X135.869 Y1056.247
G1 X135.909 Y1056.042
G1 X135.942 Y1055.835
G1 X135.967 Y1055.627
G1 X135.985 Y1055.419
G1 X135.996 Y1055.209
G1 X136.000 Y1055.000
G1 X135.996 Y1054.791
G1 X135.985 Y1054.581
G1 X135.967 Y1054.373
G1 X135.942 Y1054.165
G1 X135.909 Y1053.958
G1 X135.869 Y1053.753
G1 X135.822 Y1053.548
G1 X135.768 Y1053.346
G1 X135.706 Y1053.146
G1 X135.638 Y1052.948
G1 X135.563 Y1052.752
G1 X135.481 Y1052.560
G1 X135.393 Y1052.370
G1 X135.298 Y1052.183
G1 X135.196 Y1052.000
G1 X135.088 Y1051.820
G1 X134.974 Y1051.645
G1 X134.854 Y1051.473
G1 X134.728 Y1051.306
G1 X134.596 Y1051.143
G1 X134.459 Y1050.985
G1 X134.316 Y1050.832
G1 X134.168 Y1050.684
G1 X134.015 Y1050.541
G1 X133.857 Y1050.404
G1 X133.694 Y1050.272
G1 X133.527 Y1050.146
G1 X133.355 Y1050.026
G1 X133.180 Y1049.912
G1 X133.000 Y1049.804
G1 X132.817 Y1049.702
G1 X132.630 Y1049.607
G1 X132.440 Y1049.519
G1 X132.248 Y1049.437
G1 X132.052 Y1049.362
G1 X131.854 Y1049.294
G1 X131.654 Y1049.232
G1 X131.452 Y1049.178
G1 X131.247 Y1049.131
G1 X131.042 Y1049.091
G1 X130.835 Y1049.058
G1 X130.627 Y1049.033
G1 X130.419 Y1049.015
G1 X130.209 Y1049.004
G1 X130.000 Y1049.000
G1 X129.791 Y1049.004
G1 X129.581 Y1049.015
G1 X129.373 Y1049.033
G1 X129.165 Y1049.058
G1 X128.958 Y1049.091
G1 X128.753 Y1049.131
G1 X128.548 Y1049.178
G1 X128.346 Y1049.232
G1 X128.146 Y1049.294
G1 X127.948 Y1049.362
G1 X127.752 Y1049.437
G1 X127.560 Y1049.519
G1 X127.370 Y1049.607
G1 X127.183 Y1049.702
G1 X127.000 Y1049.804
G1 X126.820 Y1049.912
G1 X126.645 Y1050.026
G1 X126.473 Y1050.146
G1 X126.306 Y1050.272
G1 X126.143 Y1050.404
G1 X125.985 Y1050.541
G1 X125.832 Y1050.684
G1 X125.684 Y1050.832
G1 X125.541 Y1050.985
G1 X125.404 Y1051.143
G1 X125.272 Y1051.306
G1 X125.146 Y1051.473
G1 X125.026 Y1051.645
G1 X124.912 Y1051.820
G1 X124.804 Y1052.000
G1 X124.702 Y1052.183
G1 X124.607 Y1052.370
G1 X124.519 Y1052.560
G1 X124.437 Y1052.752
G1 X124.362 Y1052.948
G1 X124.294 Y1053.146
G1 X124.232 Y1053.346
G1 X124.178 Y1053.548
G1 X124.131 Y1053.753
G1 X124.091 Y1053.958
G1 X124.058 Y1054.165
G1 X124.033 Y1054.373
G1 X124.015 Y1054.581
G1 X124.004 Y1054.791
G1 X124.000 Y1055.000
G1 X124.004 Y1055.209
G1 X124.015 Y1055.419
G1 X124.033 Y1055.627
G1 X124.058 Y1055.835
G1 X124.091 Y1056.042
G1 X124.131 Y1056.247
G1 X124.178 Y1056.452
G1 X124.232 Y1056.654
G1 X124.294 Y1056.854
G1 X124.362 Y1057.052
G1 X124.437 Y1057.248
G1 X124.519 Y1057.440
G1 X124.607 Y1057.630
G1 X124.702 Y1057.817
G1 X124.804 Y1058.000
G1 X124.912 Y1058.180
G1 X125.026 Y1058.355
G1 X125.146 Y1058.527
G1 X125.272 Y1058.694
G1 X125.404 Y1058.857
G1 X125.541 Y1059.015
G1 X125.684 Y1059.168
G1 X125.832 Y1059.316
G1 X125.985 Y1059.459
G1 X126.143 Y1059.596
G1 X126.306 Y1059.728
G1 X126.473 Y1059.854
G1 X126.645 Y1059.974
G1 X126.820 Y1060.088
G1 X127.000 Y1060.196
G1 X127.183 Y1060.298
G1 X127.370 Y1060.393
G1 X127.560 Y1060.481
G1 X127.752 Y1060.563
G1 X127.948 Y1060.638
G1 X128.146 Y1060.706
G1 X128.346 Y1060.768
G1 X128.548 Y1060.822
G1 X128.753 Y1060.869
G1 X128.958 Y1060.909
G1 X129.165 Y1060.942
G1 X129.373 Y1060.967
G1 X129.581 Y1060.985
G1 X129.791 Y1060.996
G1 X130.000 Y1061.000
G1 X130.000 Y1058.000
G1 X130.105 Y1057.998
G1 X130.209 Y1057.993
G1 X130.314 Y1057.984
G1 X130.418 Y1057.971
G1 X130.521 Y1057.954
G1 X130.624 Y1057.934
G1 X130.726 Y1057.911
G1 X130.827 Y1057.884
G1 X130.927 Y1057.853
G1 X131.026 Y1057.819
G1 X131.124 Y1057.782
G1 X131.220 Y1057.741
G1 X131.315 Y1057.696
G1 X131.408 Y1057.649
G1 X131.500 Y1057.598
G1 X131.590 Y1057.544
G1 X131.678 Y1057.487
G1 X131.763 Y1057.427
G1 X131.847 Y1057.364
G1 X131.928 Y1057.298
G1 X132.007 Y1057.229
G1 X132.084 Y1057.158
G1 X132.158 Y1057.084
G1 X132.229 Y1057.007
G1 X132.298 Y1056.928
G1 X132.364 Y1056.847
G1 X132.427 Y1056.763
G1 X132.487 Y1056.678
G1 X132.544 Y1056.590
G1 X132.598 Y1056.500
G1 X132.649 Y1056.408
G1 X132.696 Y1056.315
G1 X132.741 Y1056.220
G1 X132.782 Y1056.124
G1 X132.819 Y1056.026
G1 X132.853 Y1055.927
G1 X132.884 Y1055.827
G1 X132.911 Y1055.726
G1 X132.934 Y1055.624
G1 X132.954 Y1055.521
G1 X132.971 Y1055.418
G1 X132.984 Y1055.314
G1 X132.993 Y1055.209
G1 X132.998 Y1055.105
G1 X133.000 Y1055.000
G1 X132.998 Y1054.895
G1 X132.993 Y1054.791
G1 X132.984 Y1054.686
G1 X132.971 Y1054.582
G1 X132.954 Y1054.479
G1 X132.934 Y1054.376
G1 X132.911 Y1054.274
G1 X132.884 Y1054.173
G1 X132.853 Y1054.073
G1 X132.819 Y1053.974
G1 X132.782 Y1053.876
G1 X132.741 Y1053.780
G1 X132.696 Y1053.685
G1 X132.649 Y1053.592
G1 X132.598 Y1053.500
G1 X132.544 Y1053.410
G1 X132.487 Y1053.322
G1 X132.427 Y1053.237
G1 X132.364 Y1053.153
G1 X132.298 Y1053.072
G1 X132.229 Y1052.993
G1 X132.158 Y1052.916
G1 X132.084 Y1052.842
G1 X132.007 Y1052.771
G1 X131.928 Y1052.702
G1 X131.847 Y1052.636
G1 X131.763 Y1052.573
G1 X131.678 Y1052.513
G1 X131.590 Y1052.456
G1 X131.500 Y1052.402
G1 X131.408 Y1052.351
G1 X131.315 Y1052.304
G1 X131.220 Y1052.259
G1 X131.124 Y1052.218
G1 X131.026 Y1052.181
G1 X130.927 Y1052.147
G1 X130.827 Y1052.116
G1 X130.726 Y1052.089
G1 X130.624 Y1052.066
G1 X130.521 Y1052.046
G1 X130.418 Y1052.029
G1 X130.314 Y1052.016
G1 X130.209 Y1052.007
G1 X130.105 Y1052.002
G1 X130.000 Y1052.000
G1 X129.895 Y1052.002
G1 X129.791 Y1052.007
G1 X129.686 Y1052.016
G1 X129.582 Y1052.029
G1 X129.479 Y1052.046
G1 X129.376 Y1052.066
G1 X129.274 Y1052.089
G1 X129.173 Y1052.116
G1 X129.073 Y1052.147
G1 X128.974 Y1052.181
G1 X128.876 Y1052.218
G1 X128.780 Y1052.259
G1 X128.685 Y1052.304
G1 X128.592 Y1052.351
G1 X128.500 Y1052.402
G1 X128.410 Y1052.456
G1 X128.322 Y1052.513
G1 X128.237 Y1052.573
G1 X128.153 Y1052.636
G1 X128.072 Y1052.702
G1 X127.993 Y1052.771
G1 X127.916 Y1052.842
G1 X127.842 Y1052.916
G1 X127.771 Y1052.993
G1 X127.702 Y1053.072
G1 X127.636 Y1053.153
G1 X127.573 Y1053.237
G1 X127.513 Y1053.322
G1 X127.456 Y1053.410
G1 X127.402 Y1053.500
G1 X127.351 Y1053.592
G1 X127.304 Y1053.685
G1 X127.259 Y1053.780
G1 X127.218 Y1053.876
G1 X127.181 Y1053.974
G1 X127.147 Y1054.073
G1 X127.116 Y1054.173
G1 X127.089 Y1054.274
G1 X127.066 Y1054.376
G1 X127.046 Y1054.479
G1 X127.029 Y1054.582
G1 X127.016 Y1054.686
G1 X127.007 Y1054.791
G1 X127.002 Y1054.895
G1 X127.000 Y1055.000
G1 X127.002 Y1055.105
G1 X127.007 Y1055.209
G1 X127.016 Y1055.314
G1 X127.029 Y1055.418
G1 X127.046 Y1055.521
G1 X127.066 Y1055.624
G1 X127.089 Y1055.726
G1 X127.116 Y1055.827
G1 X127.147 Y1055.927
G1 X127.181 Y1056.026
G1 X127.218 Y1056.124
G1 X127.259 Y1056.220
G1 X127.304 Y1056.315
G1 X127.351 Y1056.408
G1 X127.402 Y1056.500
G1 X127.456 Y1056.590
G1 X127.513 Y1056.678
G1 X127.573 Y1056.763
G1 X127.636 Y1056.847
G1 X127.702 Y1056.928
G1 X127.771 Y1057.007
G1 X127.842 Y1057.084
G1 X127.916 Y1057.158
G1 X127.993 Y1057.229
G1 X128.072 Y1057.298
G1 X128.153 Y1057.364
G1 X128.237 Y1057.427
G1 X128.322 Y1057.487
G1 X128.410 Y1057.544
G1 X128.500 Y1057.598
G1 X128.592 Y1057.649
G1 X128.685 Y1057.696
G1 X128.780 Y1057.741
G1 X128.876 Y1057.782
G1 X128.974 Y1057.819
G1 X129.073 Y1057.853
G1 X129.173 Y1057.884
G1 X129.274 Y1057.911
G1 X129.376 Y1057.934
G1 X129.479 Y1057.954
G1 X129.582 Y1057.971
G1 X129.686 Y1057.984
G1 X129.791 Y1057.993
G1 X129.895 Y1057.998
G1 X130.000 Y1058.000
G1 X130.000 Y1058.000 Z5
G0 X130.000 Y1101.000 Z5
G1 X130.000 Y1101.000 Z-1
G1 X130.209 Y1100.996
G1 X130.419 Y1100.985
G1 X130.627 Y1100.967
G1 X130.835 Y1100.942
G1 X131.042 Y1100.909
G1 X131.247 Y1100.869
G1 X131.452 Y1100.822
G1 X131.654 Y1100.768
G1 X131.854 Y1100.706
G1 X132.052 Y1100.638
G1 X132.248 Y1100.563
G1 X132.440 Y1100.481
G1 X132.630 Y1100.393
G1 X132.817 Y1100.298
G1 X133.000 Y1100.196
G1 X133.180 Y1100.088
G1 X133.355 Y1099.974
G1 X133.527 Y1099.854
G1 X133.694 Y1099.728
G1 X133.857 Y1099.596
G1 X134.015 Y1099.459
G1 X134.168 Y1099.316
G1 X134.316 Y1099.168
G1 X134.459 Y1099.015
G1 X134.596 Y1098.857
G1 X134.728 Y1098.694
G1 X134.854 Y1098.527
G1 X134.974 Y1098.355
G1 X135.088 Y1098.180
G1 X135.196 Y1098.000
G1 X135.298 Y1097.817
G1 X135.393 Y1097.630
G1 X135.481 Y1097.440
G1 X135.563 Y1097.248
G1 X135.638 Y1097.052
G1 X135.706 Y1096.854
G1 X135.768 Y1096.654
G1 X135.822 Y1096.452
G1 X135.869 Y1096.247
G1 X135.909 Y1096.042
G1 X135.942 Y1095.835
G1 X135.967 Y1095.627
G1 X135.985 Y1095.419
G1 X135.996 Y1095.209
G1 X136.000 Y1095.000
G1 X135.996 Y1094.791
G1 X135.985 Y1094.581
G1 X135.967 Y1094.373
G1 X135.942 Y1094.165
G1 X135.909 Y1093.958
G1 X135.869 Y1093.753
G1 X135.822 Y1093.548
G1 X135.768 Y1093.346
G1 X135.706 Y1093.146
G1 X135.638 Y1092.948
G1 X135.563 Y1092.752
G1 X135.481 Y1092.560
G1 X135.393 Y1092.370
G1 X135.298 Y1092.183
G1 X135.196 Y1092.000
G1 X135.088 Y1091.820
G1 X134.974 Y1091.645
G1 X134.854 Y1091.473
G1 X134.728 Y1091.306
G1 X134.596 Y1091.143
G1 X134.459 Y1090.985
G1 X134.316 Y1090.832
G1 X134.168 Y1090.684
G1 X134.015 Y1090.541
G1 X133.857 Y1090.404
G1 X133.694 Y1090.272
G1 X133.527 Y1090.146
G1 X133.355 Y1090.026
G1 X133.180 Y1089.912
G1 X133.000 Y1089.804
G1 X132.817 Y1089.702
G1 X132.630 Y1089.607
G1 X132.440 Y1089.519
G1 X132.248 Y1089.437
G1 X132.052 Y1089.362
G1 X131.854 Y1089.294
G1 X131.654 Y1089.232
G1 X131.452 Y1089.178
G1 X131.247 Y1089.131
G1 X131.042 Y1089.091
G1 X130.835 Y1089.058
G1 X130.627 Y1089.033
G1 X130.419 Y1089.015
G1 X130.209 Y1089.004
G1 X130.000 Y1089.000
G1 X129.791 Y1089.004
G1 X129.581 Y1089.015
G1 X129.373 Y1089.033
G1 X129.165 Y1089.058
G1 X128.958 Y1089.091
G1 X128.753 Y1089.131
G1 X128.548 Y1089.178
G1 X128.346 Y1089.232
G1 X128.146 Y1089.294
G1 X127.948 Y1089.362
G1 X127.752 Y1089.437
G1 X127.560 Y1089.519
G1 X127.370 Y1089.607
G1 X127.183 Y1089.702
G1 X127.000 Y1089.804
G1 X126.820 Y1089.912
G1 X126.645 Y1090.026
G1 X126.473 Y1090.146
G1 X126.306 Y1090.272
G1 X126.143 Y1090.404
G1 X125.985 Y1090.541
G1 X125.832 Y1090.684
G1 X125.684 Y1090.832
G1 X125.541 Y1090.985
G1 X125.404 Y1091.143
G1 X125.272 Y1091.306
G1 X125.146 Y1091.473
G1 X125.026 Y1091.645
G1 X124.912 Y1091.820
G1 X124.804 Y1092.000
G1 X124.702 Y1092.183
G1 X124.607 Y1092.370
G1 X124.519 Y1092.560
G1 X124.437 Y1092.752
G1 X124.362 Y1092.948
G1 X124.294 Y1093.146
G1 X124.232 Y1093.346
G1 X124.178 Y1093.548
G1 X124.131 Y1093.753
G1 X124.091 Y1093.958
G1 X124.058 Y1094.165
G1 X124.033 Y1094.373
G1 X124.015 Y1094.581
G1 X124.004 Y1094.791
G1 X124.000 Y1095.000
G1 X124.004 Y1095.209
G1 X124.015 Y1095.419
G1 X124.033 Y1095.627
G1 X124.058 Y1095.835
G1 X124.091 Y1096.042
G1 X124.131 Y1096.247
G1 X124.178 Y1096.452
G1 X124.232 Y1096.654
G1 X124.294 Y1096.854
G1 X124.362 Y1097.052
G1 X124.437 Y1097.248
G1 X124.519 Y1097.440
G1 X124.607 Y1097.630
G1 X124.702 Y1097.817
G1 X124.804 Y1098.000
G1 X124.912 Y1098.180
G1 X125.026 Y1098.355
G1 X125.146 Y1098.527
G1 X125.272 Y1098.694
G1 X125.404 Y1098.857
G1 X125.541 Y1099.015
G1 X125.684 Y1099.168
G1 X125.832 Y1099.316
G1 X125.985 Y1099.459
G1 X126.143 Y1099.596
G1 X126.306 Y1099.728
G1 X126.473 Y1099.854
G1 X126.645 Y1099.974
G1 X126.820 Y1100.088
G1 X127.000 Y1100.196
G1 X127.183 Y1100.298
G1 X127.370 Y1100.393
G1 X127.560 Y1100.481
G1 X127.752 Y1100.563
G1 X127.948 Y1100.638
G1 X128.146 Y1100.706
G1 X128.346 Y1100.768
G1 X128.548 Y1100.822
G1 X128.753 Y1100.869
G1 X128.958 Y1100.909
G1 X129.165 Y1100.942
G1 X129.373 Y1100.967
G1 X129.581 Y1100.985
G1 X129.791 Y1100.996
G1 X130.000 Y1101.000
G1 X130.000 Y1098.000
G1 X130.105 Y1097.998
G1 X130.209 Y1097.993
G1 X130.314 Y1097.984
G1 X130.418 Y1097.971
G1 X130.521 Y1097.954
G1 X130.624 Y1097.934
G1 X130.726 Y1097.911
G1 X130.827 Y1097.884
G1 X130.927 Y1097.853
G1 X131.026 Y1097.819
G1 X131.124 Y1097.782
G1 X131.220 Y1097.741
G1 X131.315 Y1097.696
G1 X131.408 Y1097.649
G1 X131.500 Y1097.598
G1 X131.590 Y1097.544
G1 X131.678 Y1097.487
G1 X131.763 Y1097.427
G1 X131.847 Y1097.364
G1 X131.928 Y1097.298
G1 X132.007 Y1097.229
G1 X132.084 Y1097.158
G1 X132.158 Y1097.084
G1 X132.229 Y1097.007
G1 X132.298 Y1096.928
G1 X132.364 Y1096.847
G1 X132.427 Y1096.763
G1 X132.487 Y1096.678
G1 X132.544 Y1096.590
G1 X132.598 Y1096.500
G1 X132.649 Y1096.408
G1 X132.696 Y1096.315
G1 X132.741 Y1096.220
G1 X132.782 Y1096.124
G1 X132.819 Y1096.026
G1 X132.853 Y1095.927
G1 X132.884 Y1095.827
G1 X132.911 Y1095.726
G1 X132.934 Y1095.624
G1 X132.954 Y1095.521
G1 X132.971 Y1095.418
G1 X132.984 Y1095.314
G1 X132.993 Y1095.209
G1 X132.998 Y1095.105
G1 X133.000 Y1095.000
G1 X132.998 Y1094.895
G1 X132.993 Y1094.791
G1 X132.984 Y1094.686
G1 X132.971 Y1094.582
G1 X132.954 Y1094.479
G1 X132.934 Y1094.376
G1 X132.911 Y1094.274
G1 X132.884 Y1094.173
G1 X132.853 Y1094.073
G1 X132.819 Y1093.974
G1 X132.782 Y1093.876
G1 X132.741 Y1093.780
G1 X132.696 Y1093.685
G1 X132.649 Y1093.592
G1 X132.598 Y1093.500
G1 X132.544 Y1093.410
G1 X132.487 Y1093.322
G1 X132.427 Y1093.237
G1 X132.364 Y1093.153
G1 X132.298 Y1093.072
G1 X132.229 Y1092.993
G1 X132.158 Y1092.916
G1 X132.084 Y1092.842
G1 X132.007 Y1092.771
G1 X131.928 Y1092.702
G1 X131.847 Y1092.636
G1 X131.763 Y1092.573
G1 X131.678 Y1092.513
G1 X131.590 Y1092.456
G1 X131.500 Y1092.402
G1 X131.408 Y1092.351
G1 X131.315 Y1092.304
G1 X131.220 Y1092.259
G1 X131.124 Y1092.218
G1 X131.026 Y1092.181
G1 X130.927 Y1092.147
G1 X130.827 Y1092.116
G1 X130.726 Y1092.089
G1 X130.624 Y1092.066
G1 X130.521 Y1092.046
G1 X130.418 Y1092.029
G1 X130.314 Y1092.016
G1 X130.209 Y1092.007
G1 X130.105 Y1092.002
G1 X130.000 Y1092.000
G1 X129.895 Y1092.002
G1 X129.791 Y1092.007
G1 X129.686 Y1092.016
G1 X129.582 Y1092.029
G1 X129.479 Y1092.046
G1 X129.376 Y1092.066
G1 X129.274 Y1092.089
G1 X129.173 Y1092.116
G1 X129.073 Y1092.147
G1 X128.974 Y1092.181
G1 X128.876 Y1092.218
