(--------------------------------------------------)
(文件名··················· profile.gcode)
(最后修订日期··················· 2019-12-13)
(最后修订时间··················· 14:55:05)
(软件名称··················· BoardCAM v0.0.1)
(网址·················· https://BoardCAM.org)
(程序员··················· Zheng)
(机床··················· TigerCNC)
(控制器··················· arduino grbl)
(单位··················· 毫米)
(加工编号··················· 01)
(操作··················· 铣削-钻孔)
(毛坯材料··················· 杨木)
(材料尺寸··················· 165cm*40cm*1cm)
(程序原点··················· X0 -- 左边)
(                           Y0 -- 底边)
(                           Z0 --上表面)
(状态··················· 未校验)
(铣刀····················· 6mm螺旋向上双刃铣刀)
(--------------------------------------------------)

G40
G49
G80
G54
G90
G21
G61
F1000.00000
S1000.00000
G0 X0.0 Y0.0 Z5.0
G1 X0.000 Y0.000 Z-9
G1 X7.142 Y7.658 Z-9
G1 X14.011 Y15.561 Z-9
G1 X20.601 Y23.699 Z-9
G1 X26.903 Y32.062 Z-9
G1 X32.909 Y40.640 Z-9
G1 X38.612 Y49.422 Z-9
G1 X44.006 Y58.398 Z-9
G1 X49.082 Y67.556 Z-9
G1 X53.836 Y76.886 Z-9
G1 X58.262 Y86.377 Z-9
G1 X62.353 Y96.016 Z-9
G1 X66.106 Y105.791 Z-9
G1 X69.515 Y115.692 Z-9
G1 X72.577 Y125.706 Z-9
G1 X75.287 Y135.821 Z-9
G1 X77.642 Y146.024 Z-9
G1 X79.640 Y156.303 Z-9
G1 X81.278 Y166.646 Z-9
G1 X82.555 Y177.039 Z-9
G1 X83.467 Y187.471 Z-9
G1 X84.015 Y197.928 Z-9
G1 X84.198 Y208.398 Z-9
G1 X84.198 Y208.398 Z-9
G1 X83.684 Y218.398 Z-9
G1 X83.179 Y228.398 Z-9
G1 X82.684 Y238.398 Z-9
G1 X82.197 Y248.398 Z-9
G1 X81.719 Y258.398 Z-9
G1 X81.250 Y268.398 Z-9
G1 X80.790 Y278.398 Z-9
G1 X80.338 Y288.398 Z-9
G1 X79.896 Y298.398 Z-9
G1 X79.463 Y308.398 Z-9
G1 X79.039 Y318.398 Z-9
G1 X78.623 Y328.398 Z-9
G1 X78.217 Y338.398 Z-9
G1 X77.820 Y348.398 Z-9
G1 X77.431 Y358.398 Z-9
G1 X77.052 Y368.398 Z-9
G1 X76.681 Y378.398 Z-9
G1 X76.319 Y388.398 Z-9
G1 X75.967 Y398.398 Z-9
G1 X75.623 Y408.398 Z-9
G1 X75.288 Y418.398 Z-9
G1 X74.962 Y428.398 Z-9
G1 X74.645 Y438.398 Z-9
G1 X74.337 Y448.398 Z-9
G1 X74.038 Y458.398 Z-9
G1 X73.748 Y468.398 Z-9
G1 X73.467 Y478.398 Z-9
G1 X73.194 Y488.398 Z-9
G1 X72.931 Y498.398 Z-9
G1 X72.677 Y508.398 Z-9
G1 X72.431 Y518.398 Z-9
G1 X72.195 Y528.398 Z-9
G1 X71.967 Y538.398 Z-9
G1 X71.748 Y548.398 Z-9
G1 X71.539 Y558.398 Z-9
G1 X71.338 Y568.398 Z-9
G1 X71.146 Y578.398 Z-9
G1 X70.963 Y588.398 Z-9
G1 X70.789 Y598.398 Z-9
G1 X70.624 Y608.398 Z-9
G1 X70.468 Y618.398 Z-9
G1 X70.320 Y628.398 Z-9
G1 X70.182 Y638.398 Z-9
G1 X70.053 Y648.398 Z-9
G1 X69.932 Y658.398 Z-9
G1 X69.820 Y668.398 Z-9
G1 X69.718 Y678.398 Z-9
G1 X69.624 Y688.398 Z-9
G1 X69.539 Y698.398 Z-9
G1 X69.464 Y708.398 Z-9
G1 X69.397 Y718.398 Z-9
G1 X69.339 Y728.398 Z-9
G1 X69.290 Y738.398 Z-9
G1 X69.249 Y748.398 Z-9
G1 X69.218 Y758.398 Z-9
G1 X69.196 Y768.398 Z-9
G1 X69.182 Y778.398 Z-9
G1 X69.178 Y788.398 Z-9
G1 X69.182 Y798.398 Z-9
G1 X69.196 Y808.398 Z-9
G1 X69.218 Y818.398 Z-9
G1 X69.249 Y828.398 Z-9
G1 X69.290 Y838.398 Z-9
G1 X69.339 Y848.398 Z-9
G1 X69.397 Y858.398 Z-9
G1 X69.464 Y868.398 Z-9
G1 X69.539 Y878.398 Z-9
G1 X69.624 Y888.398 Z-9
G1 X69.718 Y898.398 Z-9
G1 X69.820 Y908.398 Z-9
G1 X69.932 Y918.398 Z-9
G1 X70.053 Y928.398 Z-9
G1 X70.182 Y938.398 Z-9
G1 X70.320 Y948.398 Z-9
G1 X70.468 Y958.398 Z-9
G1 X70.624 Y968.398 Z-9
G1 X70.789 Y978.398 Z-9
G1 X70.963 Y988.398 Z-9
G1 X71.146 Y998.398 Z-9
G1 X71.338 Y1008.398 Z-9
G1 X71.539 Y1018.398 Z-9
G1 X71.748 Y1028.398 Z-9
G1 X71.967 Y1038.398 Z-9
G1 X72.195 Y1048.398 Z-9
G1 X72.431 Y1058.398 Z-9
G1 X72.677 Y1068.398 Z-9
G1 X72.931 Y1078.398 Z-9
G1 X73.194 Y1088.398 Z-9
G1 X73.467 Y1098.398 Z-9
G1 X73.748 Y1108.398 Z-9
G1 X74.038 Y1118.398 Z-9
G1 X74.337 Y1128.398 Z-9
G1 X74.645 Y1138.398 Z-9
G1 X74.962 Y1148.398 Z-9
G1 X75.288 Y1158.398 Z-9
G1 X75.623 Y1168.398 Z-9
G1 X75.967 Y1178.398 Z-9
G1 X76.319 Y1188.398 Z-9
G1 X76.681 Y1198.398 Z-9
G1 X77.052 Y1208.398 Z-9
G1 X77.431 Y1218.398 Z-9
G1 X77.820 Y1228.398 Z-9
G1 X78.217 Y1238.398 Z-9
G1 X78.623 Y1248.398 Z-9
G1 X79.039 Y1258.398 Z-9
G1 X79.463 Y1268.398 Z-9
G1 X79.896 Y1278.398 Z-9
G1 X80.338 Y1288.398 Z-9
G1 X80.790 Y1298.398 Z-9
G1 X81.250 Y1308.398 Z-9
G1 X81.719 Y1318.398 Z-9
G1 X82.197 Y1328.398 Z-9
G1 X82.684 Y1338.398 Z-9
G1 X83.179 Y1348.398 Z-9
G1 X83.684 Y1358.398 Z-9
G1 X84.198 Y1368.398 Z-9
G1 X84.198 Y1368.398 Z-9
G1 X84.015 Y1378.867 Z-9
G1 X83.467 Y1389.324 Z-9
G1 X82.555 Y1399.756 Z-9
G1 X81.278 Y1410.149 Z-9
G1 X79.640 Y1420.492 Z-9
G1 X77.642 Y1430.771 Z-9
G1 X75.287 Y1440.974 Z-9
G1 X72.577 Y1451.089 Z-9
G1 X69.515 Y1461.103 Z-9
G1 X66.106 Y1471.004 Z-9
G1 X62.353 Y1480.779 Z-9
G1 X58.262 Y1490.419 Z-9
G1 X53.836 Y1499.909 Z-9
G1 X49.082 Y1509.239 Z-9
G1 X44.006 Y1518.398 Z-9
G1 X38.612 Y1527.373 Z-9
G1 X32.909 Y1536.155 Z-9
G1 X26.903 Y1544.733 Z-9
G1 X20.601 Y1553.096 Z-9
G1 X14.011 Y1561.234 Z-9
G1 X7.142 Y1569.137 Z-9
G1 X0.000 Y1576.795 Z-9
G0 Z5
M05 M09
G0 X0 Y0 Z5
M2
